/* XPM */
static char *dummy[]={
"64 64 54 1",
"Z c #a29b4b",
"C c #a39c4c",
"n c #a49d4d",
"s c #a49d4e",
"l c #a59e4e",
"X c #a59e4f",
"M c #a59f4f",
"E c #a69f4e",
"a c #a69f4f",
"t c #a69f50",
"D c #a6a050",
"Y c #a7a04f",
"# c #a7a050",
"B c #a7a051",
"R c #a8a150",
"g c #a8a151",
"y c #a8a152",
"V c #a9a151",
". c #a9a252",
"x c #a9a253",
"Q c #a9a353",
"m c #aaa352",
"b c #aaa353",
"F c #aaa354",
"L c #aba354",
"v c #aba453",
"c c #aba454",
"A c #aba455",
"W c #aca554",
"j c #aca555",
"h c #aca556",
"G c #ada655",
"k c #ada656",
"z c #ada657",
"U c #aea756",
"i c #aea757",
"K c #aea758",
"S c #aea858",
"f c #afa858",
"H c #afa859",
"e c #b0a959",
"I c #b0a95a",
"T c #b1aa59",
"u c #b1aa5a",
"w c #b1aa5b",
"o c #b2ab5b",
"J c #b2ab5c",
"q c #b3ac5c",
"N c #b3ac5d",
"r c #b3ad5d",
"O c #b4ad5c",
"d c #b4ad5d",
"p c #b5ae5e",
"P c #b6af5f",
".#aabcdef.g.hiejbcb#cababj.fikgla.kff.jb#baba.cgjfhmlnaieocbl#gg",
"gccn#dpqjgjbboroba#..agglajqqklggaiqqcllgg#.gll.eof##glbodol#jca",
"bfeajpqkccjjbjopi#fejsjfctedf.#..g.fdeajijnjiklkqeb.bb.bcqqcbui#",
"ikockdogjkchivfdocuukgkukcodbbbg.cgjdqjiuk#jefbudjgjc.cb#oujiokj",
"uuqj#kegbb#gcgkokjqeeufuubkuggb##.#bokcwufeeeojkocabgag.gic#equu",
"iqqekuix.bby.ykfcjddoeddobjkcb...#tbzcbqdqeqddjbict#.bxg.kejuqok",
"acifuekbgjcbb.Aeeeqoj#foofeib.b.bba.ieiqoigfqqeeeb#bbcjg.kfffibn",
"#..cf.bj#Ag.y.j.iic.glbvjeAbk.bg.b#cgciccgl.cjii.jgbbgjgjb.eb..a",
"lBeeegcggb#.#.bbjfAb#a.jjo.j.yg.bgggbguccglgccec...gc.c.gc.uuf#a",
"aCboqia#cbDggalbuqu#agajodiaEbg#g.gCafdoc##aboqf#na..#cj#ledegl#",
"g.bkdo.jofacfiakqoba#g#.kdo#buk#gie#gdqcg#.##codcaeecaiuc.qdbb.#",
"aba.dokiofbfeebudigFggcc.qqkjqkccio.fdugFbybjgedebufz.kukkoq##bl",
"laa.ekcuoeoouoGkoba.ll..#uf.fqeowfqkbufabgl#blkqjkqeoufqu.jH.all",
"g#lBkijoqqfqqdjcij#aggg#.ijbIqqeuddfbkkga##al#ji.kddoiqdqjiig#g.",
"ggn.jifuejgceJfeeb#.bcb#yieKeek.bioefukgg.b.#abuffoe.acefifjbaxg",
".g#A.Lebcbagcbkibkg..gbac.cujb.#g..jfbcc#bg.#gj.ijb.#a...fbcjgb#",
".allbcqfkga#jjebbb.gbBbg.jgoef.a#biei.cbgc#cabjykfj.aM#ifok.l#g.",
"ab.Ctddega.a.udegn#..g.gnafdobl..#iddjllg.g.#nnbodfla.#bodoaajca",
"gkuacdqjb.b.xjod.#efb#ie.gqdjb..bbbfpeacejljijCipu.g..cjjddcgok#",
"jjojcougj..jzbeqfbofccfqciqqggb#gcgbdociuk#keeyepz#ccgbc#oociojj",
"ueokaki#gaa.jgfucidfuofqfbfug#alag#.ecboueueeqjcuja.gag..ek#eque",
"fqqekekgag..g.ik.fdduuqqe.kigaggg##bijbNdpeqppjbicag.b.g.koioOdf",
"#kifeejggcjc..kufuoeb.fouiik.agb..#bfeuddKyjuqfeeba.bbc#bkfuueka",
"#.#ci.jcgcBcgcj.ijb.##bcjf.bja.a..gcgkejj.a.b.iz#jgg.#j#jbgfj..#",
"agffkbj.gcBbgbjgkic.al.iiocba###b#a#b.ojjgagjkob.gg#.gb#acgeef#a",
"#n.eocagccag.aabuqflaggiqdollc.lgbgnaqPqcabgbodu#n#.gacclCfdqcn#",
"gggcqfajukljfkaide.a#...kddbgofabfeajPpkggbcbjopc#efcaiu.#oqiQgg",
"#bagqfbfui.iefbudjgcg.jF.qojioickiocupq.cjbbkgfpebqfickujcuq.g.l",
"lalgi#guufoeeujjobgF#a..tuj#eduoouqibuuabb#gbgkubkdeqoeqeaceg#an",
"g#lgkbbooofooqjbkj.gb.#g.iekoppeoddfjefg#gb.Rgjk.ippqeddo.iiba#g",
"g#ngcjiuuk#ceuSff.#bbcbgbjfTooi.jwouuqk#gbAb.gjeiuqecxeJofui.l.g",
"tgab#.j..#lgb.kjgc#g.ac#j.gicbbgbjckebcb#b#cybjgikbb.gcjjfj.ja.#",
"gaan.cebbgtgccf.b.ga.a.##bguiz.a#ciefBcb#c#j#gc.jekc#agiiogcaa#g",
"a..naqquc#.#.eof.Clgga..nseqqkag#afdoblng.abbanbdqugggakqqelC.ba",
".fugjqok.gb.gcodj#fi.aiobgqdibg..gbupflkeilkeiafpuc...g.idog#ui#",
"ikojkou.jcbjk.fdojufjciqkiqqgFcg.c.kpqbeqf.ieecodjbj.gccxqqicoic",
"quqKgifgb.agc#kokiqeoouqe.kea#gla.#bqUcqououeobcoba.llg.guf.fqeu",
"uddejefb#ggg##kfcidpqeddobki#lg.ga#cibbppduqqqjbfbla#g#a.ficuqqi",
"Vkeeeok.gcc..gcueuqok.edqefjgabccbabuefdqfbHqouuf.ag...ayiufuuk#",
"bcciubbA#cg...kbKkbc.#jkkfbgcac.Fb#jbifjj.l.cjfi.j#.g#baAbcecbb#",
"gcuqugj.#b#bgbcbkfccg#bikugbg#b.c...cbuccglgWjucb.ggx#.#gj.ufigg",
".giddkXn.b#g.##boqe#a.giqdulCgbgg.gn#fdoba#abqdegna.glxblafdoba.",
"ccjeduaceilbffBkpo.#.b..idqggef#gieBgpdA#l##gkddbaff.liubgodcx..",
".kbkdojkqigkfubupf#cccjcgqdijoiccKqbipo#..#gj.ude.uijgkujkoqgyb#",
"lggkqibeqfuufokjojaxg#b.#ei.Hqfoufqkboelg#ClbakojkqHeefuf.jfga#a",
"g.gjejbqddfqqqj.kj#aybgagiibudduudqi.kkaaaaaagki.kqquiooucikyagb",
"gbgjfefookgceofKec##bjb##kufoof.bfoeiucl#.b.g#cufeofgacffiij.a..",
"gbbk.ie.b.a#..kk.k.#b.FYbcbfcbb##.bcibbga.#.#.jbikb.an##gSb.j#b#",
"bgggcbqkkgXa.cijgjbtc#c#bcgffi.##.jzfgc.#bab#bc.kHj.lnajiubba#.g",
".jcagoqocag#afqobal.bg.#nacoqhaggajoqjang.#ggXlbuqfal#nguqulaccg",
"bfo.kqqk.y..B.upilkekakijafdf.g.bggfduacfklcfkakdubgg...jqub.ui.",
"ikujfqqg..gFj.ipu.eukgkefbqpcgc.gc.bqojkukgjef.udi.jbgQb#oojkukk",
"ueqigee#aal#b#jojjoueefuojfdylgln#a#ukbuufuHeojjoc#.ana##fc#equu",
"Kqqfcek.la###gjicjqdqfqddbbkblla#llbib.oqdeodqjbij#a###lgjicuqok",
"tjffIejgl..bxycueeqwkgkoofefbag...l.feiuui#kooeeeb#gg..agjiiiibl",
"#bbkqbgblbggb.ibifcbb#xFbkj.ka.g.b#jbkibbylgbjfi.kgg.#blc.geb.ga",
"lgooo#c##.ggbcccbukjg#gkjfgbg#g.b..bj.uccan#jjucbb.#.g.lacguufal",
"#nAqdeln.c##b.agudu.#.#cuqfaZ#gB.c.lgedubn#a.odIgl#g#ab.llepugl#",
"bbbido#guf#beu.cpqcg.b..cqdggfig.iug.dqc#ag##cqdb#fixliu.gqdcbbg",
"#c#cdqkcqfckfqcuPu#cb.cb#odf.eiccio.ido#b.g.cgeqf.ufj.kukjoqggba",
"a##jok.edeqoedijdfabga#gXeociofuuiokguelgan#bakubjqfuoeoegje.aaa",
"..#cekcqPpuodpfbff.ag.ga.fi.fddeeqqi.ffga###lgzkgkqqufddoFieb#.b",
"..ajkieqqe.cequfqk##bcb#.iofuofggfoefqf.g.bb##cuifof.akeefikj#b.",
".g.jgcekjc.bcckibi.#bgbacjbijb.#g..hfbkc#b#b#gk.kjb.gab.bfbckgca"};
