/* XPM */
static char * east_xpm[] = {
"64 64 107 2",
"  	c #FFFFFF",
". 	c #E1E1E1",
"+ 	c #AEAEAE",
"@ 	c #A6A6A6",
"# 	c #BDBDBD",
"$ 	c #F4F4F4",
"% 	c #B7B7B7",
"& 	c #3D3D3D",
"* 	c #1C1C1C",
"= 	c #383838",
"- 	c #6C6C6C",
"; 	c #757575",
"> 	c #8D8D8D",
", 	c #9D9D9D",
"' 	c #CDCDCD",
") 	c #D7D7D7",
"! 	c #B3B3B3",
"~ 	c #2F2F2F",
"{ 	c #0F0F0F",
"] 	c #151515",
"^ 	c #000000",
"/ 	c #2B2B2B",
"( 	c #474747",
"_ 	c #595959",
": 	c #7C7C7C",
"< 	c #BCBCBC",
"[ 	c #575757",
"} 	c #373737",
"| 	c #454545",
"1 	c #3E3E3E",
"2 	c #EEEEEE",
"3 	c #363636",
"4 	c #868686",
"5 	c #E9E9E9",
"6 	c #CBCBCB",
"7 	c #636363",
"8 	c #AAAAAA",
"9 	c #C1C1C1",
"0 	c #353535",
"a 	c #656565",
"b 	c #C6C6C6",
"c 	c #B4B4B4",
"d 	c #0E0E0E",
"e 	c #2C2C2C",
"f 	c #C4C4C4",
"g 	c #272727",
"h 	c #D2D2D2",
"i 	c #4D4D4D",
"j 	c #1F1F1F",
"k 	c #5B5B5B",
"l 	c #DFDFDF",
"m 	c #7F7F7F",
"n 	c #292929",
"o 	c #747474",
"p 	c #1D1D1D",
"q 	c #3A3A3A",
"r 	c #616161",
"s 	c #A1A1A1",
"t 	c #242424",
"u 	c #959595",
"v 	c #F0F0F0",
"w 	c #BABABA",
"x 	c #787878",
"y 	c #434343",
"z 	c #828282",
"A 	c #A5A5A5",
"B 	c #919191",
"C 	c #4B4B4B",
"D 	c #888888",
"E 	c #696969",
"F 	c #898989",
"G 	c #222222",
"H 	c #232323",
"I 	c #5E5E5E",
"J 	c #8E8E8E",
"K 	c #555555",
"L 	c #252525",
"M 	c #1B1B1B",
"N 	c #202020",
"O 	c #646464",
"P 	c #969696",
"Q 	c #C2C2C2",
"R 	c #838383",
"S 	c #101010",
"T 	c #090909",
"U 	c #050505",
"V 	c #0D0D0D",
"W 	c #343434",
"X 	c #8A8A8A",
"Y 	c #727272",
"Z 	c #3F3F3F",
"` 	c #404040",
" .	c #060606",
"..	c #2A2A2A",
"+.	c #707070",
"@.	c #181818",
"#.	c #9B9B9B",
"$.	c #010101",
"%.	c #6D6D6D",
"&.	c #0C0C0C",
"*.	c #0A0A0A",
"=.	c #565656",
"-.	c #505050",
";.	c #212121",
">.	c #323232",
",.	c #676767",
"'.	c #B2B2B2",
"                                                                                                                                ",
"                                                                                                                                ",
"                                                                                                                                ",
"                                                                                                                                ",
"                                                                                                                                ",
"                                                                                                                                ",
"                                                                                                                                ",
"                                                                                                                                ",
"                                          . + @ # $                                                                             ",
"                                          % & * = - ; > , # # ' ) $                                                             ",
"                                          ! ~ { ] ^ / / ( ( _ ( : <                                                             ",
"                                          ' [ } | - _ _ ( ( / ( 1 <                                                             ",
"                                          2 - 3 4 $ 5 ' # , , > ! 6                                                             ",
"                                          $ 7 ^ -                                                                               ",
"                                            - ^ 7 $                                                                             ",
"                                            ; / _ 5                                                                             ",
"                                            > / _ '                                                                             ",
"                                            8 ( ( 8                                                                             ",
"                                            # _ / ,                                                                             ",
"                                            9 & 0 a + + + + + + + + b .                                                         ",
"                                            c 3 d e ( ( ( ( ( ( ( ( 7 <                                                         ",
"                                            f 3 d g ( ( ( ( ( ( ( ( 7 <                                                         ",
"                                            h i j k + + + + + + + + b .                                                         ",
"                                            l _ / m                                                                             ",
"                                            l _ / m                                                                             ",
"                                            l _ / m                                                                             ",
"                                            l _ / m                                                                             ",
"                                            l _ n o l 5 $                                                                       ",
"                                            l _ p q _ r - ; ; m m m m s 6                                                       ",
"                                            5 : / t / / / ^ / / / / / 1 <                                                       ",
"                                            $ < u m m ; r 7 _ _ _ _ _ : <                                                       ",
"                                                      $ $ 5 5 l l l l 5 $                                                       ",
"                                                                                                                                ",
"                                                                                                                                ",
"                                                                                                                                ",
"                                                                                                                                ",
"                                                                                                                                ",
"                                                                                                                                ",
"                                                                                                                                ",
"                                                                                                                                ",
"                                                                                                                                ",
"                                                                                                                                ",
"                                                                                                                                ",
"                                                                                              v b + w .                         ",
"                                                                                              . x & y z ! .                     ",
"                                                    . b + + + + b .                           . x & & / ( x A .                 ",
"              . ! > m m > 8 ) $                   b B C ( ( ( ( 7 <                           v b + D - ( ^ ( E B b             ",
"            6 F ( n / / / ( r u 6               6 7 G ~ ( ( ( ( i F < $                             $ 8 r = H ^ j I ! .         ",
"          ) J n } K _ _ _ ( L / F .           ) J M N O + + + + P 3 : Q                           ) ! R 3 L S T U V & F .       ",
"        b m W & X f l l ' 8 Y 0 ( A $     . ! Y 0 0 m #         Q _ / J                         . x Z & - _ `  . .S G 7 .       ",
"        F ..p F .           ) +.n - 5 . ! z i L / F .           $ R ^ - 6                     A x ..@.Y ' #.}  .$.@.Y A .       ",
"        F 3 - 6               > / Z %.7 ( / ( r u 6               ! r / u $               5 ! Y ^ 3 z , ! I &.^ *.=..           ",
"        b b b                 ! 7 ( ^ ^ ( - , ) $                 $ u 3 | I =.7 7 7 7 7 7 I -.L - F b A =.p ;.>.O +             ",
"                              . < F x x , ) $                       6 A ( ^ ^ ^ ^ ^ ^ ^ ^ ^ / F Q Q J i ( ,., )                 ",
"                                                                      . F 7 =.7 7 7 7 7 7 - u '.A - / =., ) $                   ",
"                                                                                              < 7 / - A .                       ",
"                                                                                              < - J Q $                         ",
"                                                                                              . . .                             ",
"                                                                                                                                ",
"                                                                                                                                ",
"                                                                                                                                ",
"                                                                                                                                ",
"                                                                                                                                ",
"                                                                                                                                "};
