/* XPM */
static char * north_xpm[] = {
"64 64 89 1",
" 	c #FFFFFF",
".	c #E1E1E1",
"+	c #BCBCBC",
"@	c #9D9D9D",
"#	c #313131",
"$	c #8A8A8A",
"%	c #727272",
"&	c #080808",
"*	c #000000",
"=	c #646464",
"-	c #5E5E5E",
";	c #121212",
">	c #3A3A3A",
",	c #A5A5A5",
"'	c #B3B3B3",
")	c #474747",
"!	c #3D3D3D",
"~	c #404040",
"{	c #787878",
"]	c #F4F4F4",
"^	c #C6C6C6",
"/	c #898989",
"(	c #828282",
"_	c #2B2B2B",
":	c #616161",
"<	c #767676",
"[	c #595959",
"}	c #C2C2C2",
"|	c #919191",
"1	c #363636",
"2	c #8E8E8E",
"3	c #B9B9B9",
"4	c #BDBDBD",
"5	c #434343",
"6	c #525252",
"7	c #9A9A9A",
"8	c #6C6C6C",
"9	c #969696",
"0	c #222222",
"a	c #757575",
"b	c #E9E9E9",
"c	c #1D1D1D",
"d	c #3F3F3F",
"e	c #4D4D4D",
"f	c #D7D7D7",
"g	c #AEAEAE",
"h	c #7F7F7F",
"i	c #696969",
"j	c #565656",
"k	c #838383",
"l	c #AAAAAA",
"m	c #CDCDCD",
"n	c #5D5D5D",
"o	c #383838",
"p	c #292929",
"q	c #555555",
"r	c #7C7C7C",
"s	c #232323",
"t	c #1A1A1A",
"u	c #272727",
"v	c #CACACA",
"w	c #373737",
"x	c #7A7A7A",
"y	c #8D8D8D",
"z	c #4E4E4E",
"A	c #252525",
"B	c #F0F0F0",
"C	c #3E3E3E",
"D	c #545454",
"E	c #E7E7E7",
"F	c #A1A1A1",
"G	c #737373",
"H	c #636363",
"I	c #999999",
"J	c #A6A6A6",
"K	c #424242",
"L	c #202020",
"M	c #2D2D2D",
"N	c #676767",
"O	c #F9F9F9",
"P	c #DFDFDF",
"Q	c #DADADA",
"R	c #464646",
"S	c #242424",
"T	c #0A0A0A",
"U	c #333333",
"V	c #CBCBCB",
"W	c #959595",
"X	c #878787",
"                                                                ",
"                                                                ",
"                                                                ",
"                                                                ",
"                                                                ",
"                                                                ",
"                                                                ",
"                                                                ",
"                        .++.                                    ",
"                        @##$                                    ",
"                        %&*=.                                   ",
"                       .-*;>,                                   ",
"                       ')!~*{]     ^//^                         ",
"                      ](_:<_[}    ]|#1^                         ",
"                      }:_23[_2    45;6^                         ",
"                      7_[3]{*8.   9009                          ",
"                     .a_8b @))'   %cd4                          ",
"                     'e)@] f:_(] .8*{]                          ",
"                     (_[f  ](_:f g##h                           ",
"                    .8*{]   @))4 h00g                           ",
"                    ^))|    4))@.i*j^                           ",
"                    |))^    4[_@,)),                            ",
"                   ]{*8.    4))9{*8.                            ",
"                   f[_(     4))k[_(                             ",
"                   l))l     m[_n))l                             ",
"                   (_[f     b[_o_[f                             ",
"                  ]8*8]     ]8*p*8]                             ",
"                  fqpr       astu(                              ",
"                  v!wx       yscz'                              ",
"                  ^jA|       'j)@.                              ",
"                  .(('       .++.                               ",
"                  B..B                                          ",
"                                                                ",
"                                                                ",
"                                                                ",
"                                                                ",
"                                                                ",
"                                                                ",
"                                                                ",
"                                                                ",
"                                                                ",
"                                                                ",
"                                                                ",
"                                               ]+,'.            ",
"                                               ]lCD2}]          ",
"                                               ]+/e_:2}]        ",
"                      .^ggggggggggg4mb]          .,8__8,.       ",
"  EFhGhhhhhhhhhhhhhhha8)))))))))))))[[HHHHHH8(@IIIJkqKLe2}]     ",
"  .8LA________________*)))))))))))))__*******_)#0#))5MNe_:2}]   ",
"  .kqz[[[[[[[[[[[[[[[[{|ggggggggggg@ya8HHHHHH[)#0#)))r,,8_Az{+  ",
"  ObPQPPPPPPPPPPPPPPPb]                     ]f4IIIgg4ff4<RST*+  ",
"                                                  .'ya8))p*U8+  ",
"                                               ]f@{)__*))[{,.   ",
"                                              VW:)*)[[{|4f]     ",
"                                              +C_){@mb]         ",
"                                              +X('.             ",
"                                              ]]]               ",
"                                                                ",
"                                                                ",
"                                                                ",
"                                                                ",
"                                                                ",
"                                                                ",
"                                                                "};
