/* XPM */
static char * rick_xpm[] = {
"64 64 3784 2",
"  	c #D5DCFA",
". 	c #D4DAFB",
"+ 	c #CED4FB",
"@ 	c #D0D7FA",
"# 	c #C1C8EE",
"$ 	c #ADB5DB",
"% 	c #AFB4D7",
"& 	c #B2B5D8",
"* 	c #B4B6DA",
"= 	c #B8B8DB",
"- 	c #B7B7D6",
"; 	c #B9B8DA",
"> 	c #C4C8EC",
", 	c #D2D8FA",
"' 	c #CFD4F6",
") 	c #D1D5F8",
"! 	c #CFD2F1",
"~ 	c #CECEED",
"{ 	c #CBCDEC",
"] 	c #CDCFF0",
"^ 	c #CBCCE9",
"/ 	c #C6C9E5",
"( 	c #D0CFE7",
"_ 	c #CDC9E0",
": 	c #BDB8CF",
"< 	c #B4ABC0",
"[ 	c #B7AABE",
"} 	c #C6BAD1",
"| 	c #DED3ED",
"1 	c #E5D5F0",
"2 	c #DFD0EA",
"3 	c #DACCE6",
"4 	c #DCCFEA",
"5 	c #DFD2ED",
"6 	c #D8CCE5",
"7 	c #D2CBE5",
"8 	c #D0CCE3",
"9 	c #CAC9E0",
"0 	c #C9C9E1",
"a 	c #BDBDD7",
"b 	c #ADA7C0",
"c 	c #ABA2BA",
"d 	c #A9A4BA",
"e 	c #A9A4BB",
"f 	c #A7A4BB",
"g 	c #A6A6BD",
"h 	c #A7A6BD",
"i 	c #B8B9D7",
"j 	c #BDC0DE",
"k 	c #C5C8E6",
"l 	c #CBCCE8",
"m 	c #D2D0EA",
"n 	c #CEC9E5",
"o 	c #CAC3DE",
"p 	c #C7C0DE",
"q 	c #C7C2E1",
"r 	c #C5C0DF",
"s 	c #C4BEE0",
"t 	c #C4BEE1",
"u 	c #C5BEE1",
"v 	c #C4C0E2",
"w 	c #C2BFE0",
"x 	c #BFBCDD",
"y 	c #BCBAD7",
"z 	c #B9C0EA",
"A 	c #C0C9EF",
"B 	c #C4CEF1",
"C 	c #BCC6EC",
"D 	c #B0B8DF",
"E 	c #B1B6DD",
"F 	c #B6BADF",
"G 	c #B8B8DA",
"H 	c #BDB9DD",
"I 	c #BEBBDC",
"J 	c #C8CBE9",
"K 	c #CCD3F3",
"L 	c #D1D6F4",
"M 	c #CECFF2",
"N 	c #D0D3F3",
"O 	c #BABDDB",
"P 	c #ADAECA",
"Q 	c #AFABC9",
"R 	c #AFADCA",
"S 	c #ADA9C2",
"T 	c #A9A6C2",
"U 	c #A5A3BB",
"V 	c #A8A4B9",
"W 	c #A8A4B6",
"X 	c #B1A8B9",
"Y 	c #BAABBF",
"Z 	c #BBABC2",
"` 	c #C0B0C7",
" .	c #CCBED4",
"..	c #D2C4DA",
"+.	c #D8C9E2",
"@.	c #D7CAE3",
"#.	c #D8CAE5",
"$.	c #D3C6E1",
"%.	c #DFD5EF",
"&.	c #DAD1EA",
"*.	c #D5CEE7",
"=.	c #CAC8DF",
"-.	c #C1BED8",
";.	c #ADA7BF",
">.	c #ABA2B8",
",.	c #A9A3B8",
"'.	c #A8A3B9",
").	c #A7A4BA",
"!.	c #A6A5BC",
"~.	c #B5B8D5",
"{.	c #C2C6E5",
"].	c #C9CCE8",
"^.	c #C6CAE7",
"/.	c #C6C9E7",
"(.	c #D7D7F2",
"_.	c #D6D5F0",
":.	c #D8D4F0",
"<.	c #C9C4E2",
"[.	c #C6C0DC",
"}.	c #C5BEDE",
"|.	c #C4BFE0",
"1.	c #C5BEE2",
"2.	c #C6C0E2",
"3.	c #C3BFDF",
"4.	c #C0BCDD",
"5.	c #BEBBD8",
"6.	c #B4BCE7",
"7.	c #B4BBE7",
"8.	c #B0B9E6",
"9.	c #ADB9E2",
"0.	c #AFBAE0",
"a.	c #B6BFE2",
"b.	c #C8D0EF",
"c.	c #BABADF",
"d.	c #BEBBDE",
"e.	c #C2BDE1",
"f.	c #C2BFDF",
"g.	c #C8C7E5",
"h.	c #CECFEB",
"i.	c #CBCFE8",
"j.	c #BCBFDD",
"k.	c #B2B3D2",
"l.	c #A9ACC7",
"m.	c #ABADC5",
"n.	c #AEADC6",
"o.	c #ADADC4",
"p.	c #ABACC1",
"q.	c #A8A8BD",
"r.	c #A9A4B9",
"s.	c #AAA3B5",
"t.	c #BAA6AB",
"u.	c #C7998F",
"v.	c #E09F7D",
"w.	c #DE9976",
"x.	c #E0A893",
"y.	c #D6A091",
"z.	c #D5A8A2",
"A.	c #CBAFB8",
"B.	c #C0AEC0",
"C.	c #BFADC4",
"D.	c #BFAEC7",
"E.	c #C0B2CC",
"F.	c #D3CDE7",
"G.	c #D4D0EA",
"H.	c #CFCCE6",
"I.	c #CAC4E0",
"J.	c #BCB7D2",
"K.	c #AAA3BA",
"L.	c #A8A4B7",
"M.	c #A9A2BA",
"N.	c #A8A4BB",
"O.	c #A5A5BB",
"P.	c #AEACC6",
"Q.	c #C3C8E8",
"R.	c #C0C6E2",
"S.	c #C8CDEC",
"T.	c #D1D4F4",
"U.	c #C4C2E3",
"V.	c #D7D5EF",
"W.	c #DBD9EF",
"X.	c #CBC6E4",
"Y.	c #C2C0E0",
"Z.	c #C4BEE3",
"`.	c #C3C0E3",
" +	c #C1BFDF",
".+	c #C2BFDE",
"++	c #C4C0E0",
"@+	c #BBC1E9",
"#+	c #B4BBE4",
"$+	c #B3BAE4",
"%+	c #B3BAE3",
"&+	c #B3BCE2",
"*+	c #B7BDE3",
"=+	c #C1C6E6",
"-+	c #BEBEE2",
";+	c #C1BFE1",
">+	c #C4C0E1",
",+	c #BEBBDA",
"'+	c #BAB7D6",
")+	c #B2B3D0",
"!+	c #AFAECD",
"~+	c #ADADCA",
"{+	c #ADAFC9",
"]+	c #B5B7CE",
"^+	c #BEBDD8",
"/+	c #B3B2C9",
"(+	c #ADABC2",
"_+	c #ABA6B9",
":+	c #AFA7B7",
"<+	c #C6A7A9",
"[+	c #DE9066",
"}+	c #DD894D",
"|+	c #BA662D",
"1+	c #C56F35",
"2+	c #AA5A28",
"3+	c #893D10",
"4+	c #92471D",
"5+	c #B57255",
"6+	c #C79892",
"7+	c #CCAFBE",
"8+	c #C0ACC3",
"9+	c #BBAAC3",
"0+	c #B8A9C4",
"a+	c #BAB1CB",
"b+	c #C1BCD8",
"c+	c #C0BED9",
"d+	c #C0C1DA",
"e+	c #A9A7BE",
"f+	c #A7A3B9",
"g+	c #A6A4B8",
"h+	c #AFACC5",
"i+	c #A5A5BD",
"j+	c #A7A5BD",
"k+	c #AAAAC4",
"l+	c #BAB8D6",
"m+	c #BBBBD8",
"n+	c #B9B8D5",
"o+	c #BAB8D3",
"p+	c #BCB8D8",
"q+	c #C0BCDE",
"r+	c #C1BEDE",
"s+	c #C3C1E1",
"t+	c #C3C1E3",
"u+	c #C4BEE2",
"v+	c #C5BFE3",
"w+	c #C4C1E2",
"x+	c #C4C2E1",
"y+	c #C5C2E1",
"z+	c #C7C2E3",
"A+	c #D1DBF6",
"B+	c #D0DCF6",
"C+	c #C6CEEE",
"D+	c #C1C9E8",
"E+	c #BAC0E6",
"F+	c #BAC0E3",
"G+	c #BCC1E3",
"H+	c #C1C0E3",
"I+	c #C6C2E3",
"J+	c #C5C1E2",
"K+	c #C2BEDF",
"L+	c #BDB9DA",
"M+	c #B8B5D3",
"N+	c #B4B1D0",
"O+	c #B0AFCB",
"P+	c #B0B1CB",
"Q+	c #B0B2C9",
"R+	c #C2C7DF",
"S+	c #AFADC4",
"T+	c #AFACC3",
"U+	c #AFA9BA",
"V+	c #C5B0B9",
"W+	c #DCA593",
"X+	c #A74A1C",
"Y+	c #853A10",
"Z+	c #863D11",
"`+	c #944918",
" @	c #8C4618",
".@	c #834725",
"+@	c #7F4626",
"@@	c #85482B",
"#@	c #8C4E2E",
"$@	c #BE8674",
"%@	c #D4B0B9",
"&@	c #BAA9BE",
"*@	c #B7A6C0",
"=@	c #B0A5BE",
"-@	c #ACA3BB",
";@	c #A7A2BA",
">@	c #A7A3BA",
",@	c #A7A3BB",
"'@	c #A8A5BE",
")@	c #B5B3CE",
"!@	c #ABA9C2",
"~@	c #A7A4BD",
"{@	c #A7A4C1",
"]@	c #A9A6C3",
"^@	c #B2B0CD",
"/@	c #B9B5D3",
"(@	c #BEB8D8",
"_@	c #C2BCDC",
":@	c #C5C0E2",
"<@	c #C7C0E6",
"[@	c #CDC7EA",
"}@	c #CDCBED",
"|@	c #C5C0E6",
"1@	c #C9C4E8",
"2@	c #CBC5EA",
"3@	c #C8C6EA",
"4@	c #C8C5E6",
"5@	c #C6C4E4",
"6@	c #CAD8F4",
"7@	c #D6E2F8",
"8@	c #CFD9F5",
"9@	c #D9DFF6",
"0@	c #D8DEF8",
"a@	c #D2DBF4",
"b@	c #BFC3E5",
"c@	c #C3C3E6",
"d@	c #C5C3E7",
"e@	c #C6C2E4",
"f@	c #C5C3E3",
"g@	c #C8C5E4",
"h@	c #D3D2EF",
"i@	c #D2D0EB",
"j@	c #C6C3E1",
"k@	c #BEBBD6",
"l@	c #BBB9D4",
"m@	c #B0B1C8",
"n@	c #B1B0CA",
"o@	c #B2AFC6",
"p@	c #B3AEC4",
"q@	c #B6A9B8",
"r@	c #DAAA9D",
"s@	c #DB8457",
"t@	c #BD5E2D",
"u@	c #7C3E1A",
"v@	c #69330E",
"w@	c #6B3816",
"x@	c #6D3818",
"y@	c #7E4828",
"z@	c #703C1B",
"A@	c #6D3A19",
"B@	c #7F492A",
"C@	c #915337",
"D@	c #B67D64",
"E@	c #C5AAB3",
"F@	c #B8A6BB",
"G@	c #B3A4BD",
"H@	c #ADA2BC",
"I@	c #AAA2B9",
"J@	c #A7A3BC",
"K@	c #A8A3BB",
"L@	c #A7A6BE",
"M@	c #A8A7C1",
"N@	c #A5A5BF",
"O@	c #A6A5BF",
"P@	c #A7A7C2",
"Q@	c #AAA8C3",
"R@	c #B7B4D0",
"S@	c #BDB9D5",
"T@	c #C1B9D9",
"U@	c #C4BDDD",
"V@	c #D4CFEA",
"W@	c #E2DEF3",
"X@	c #E9E7F7",
"Y@	c #DCDDF7",
"Z@	c #C6C2EA",
"`@	c #CBC7EA",
" #	c #E3E0F8",
".#	c #D6D2F1",
"+#	c #C9C8EC",
"@#	c #C6C5E4",
"##	c #CDDBF8",
"$#	c #D5E2FA",
"%#	c #D2DDF9",
"&#	c #DCE6F9",
"*#	c #D8E1FA",
"=#	c #D9E3F9",
"-#	c #C4C4EC",
";#	c #C5C3E8",
">#	c #C7C3E7",
",#	c #C7C3E6",
"'#	c #C8C5E7",
")#	c #CAC6E8",
"!#	c #DAD7F0",
"~#	c #D9D7F0",
"{#	c #D7D6F0",
"]#	c #D0D0EC",
"^#	c #C1C2DE",
"/#	c #B1B1CD",
"(#	c #B4B1C8",
"_#	c #B8B3C9",
":#	c #BEB6CA",
"<#	c #CEAAA5",
"[#	c #E39A68",
"}#	c #CA7135",
"|#	c #9D4A17",
"1#	c #6D3210",
"2#	c #6A3512",
"3#	c #673413",
"4#	c #602D0F",
"5#	c #6D3819",
"6#	c #6F3817",
"7#	c #6E3717",
"8#	c #794121",
"9#	c #894D30",
"0#	c #915435",
"a#	c #C4A097",
"b#	c #C2B4C7",
"c#	c #CAC0D4",
"d#	c #C2BED4",
"e#	c #BEBCD5",
"f#	c #B3AFC9",
"g#	c #A8A4BF",
"h#	c #A9A6C0",
"i#	c #A8A6C0",
"j#	c #A8A7C0",
"k#	c #B0B1CA",
"l#	c #BABBD5",
"m#	c #BBBBD7",
"n#	c #BCBBD7",
"o#	c #D4D3EF",
"p#	c #DDDBF5",
"q#	c #E5E2F6",
"r#	c #DED9F4",
"s#	c #E2E1F6",
"t#	c #E9E8F8",
"u#	c #ECEAFB",
"v#	c #E6E5F8",
"w#	c #CECBEE",
"x#	c #C8C4E9",
"y#	c #DFDFFA",
"z#	c #E5E6F9",
"A#	c #D5D9F4",
"B#	c #C5C7E8",
"C#	c #D9E3FA",
"D#	c #DAE5FA",
"E#	c #DBE7FB",
"F#	c #DFECFB",
"G#	c #E0E6FA",
"H#	c #CCD0F5",
"I#	c #C3C3EC",
"J#	c #C6C4EA",
"K#	c #C8C6E8",
"L#	c #C6C5E7",
"M#	c #D6D5EE",
"N#	c #D9D6F2",
"O#	c #D5D5F0",
"P#	c #CFD0EB",
"Q#	c #CED0E9",
"R#	c #BABBD2",
"S#	c #B5B3C9",
"T#	c #C0BED8",
"U#	c #C3BBD1",
"V#	c #E3B59F",
"W#	c #EBA067",
"X#	c #BD6A31",
"Y#	c #A25731",
"Z#	c #8F5235",
"`#	c #884E34",
" $	c #7C4627",
".$	c #7B4123",
"+$	c #7E4528",
"@$	c #7F4428",
"#$	c #783C21",
"$$	c #7F4226",
"%$	c #733B1E",
"&$	c #814B2B",
"*$	c #B58B79",
"=$	c #CABFD4",
"-$	c #D0CAE1",
";$	c #CBC4DE",
">$	c #C6C1DE",
",$	c #B3AFCB",
"'$	c #ACA8C2",
")$	c #A9A7C1",
"!$	c #AAA7C2",
"~$	c #A9A7C2",
"{$	c #AAA9C3",
"]$	c #C3C5E5",
"^$	c #C9CDEE",
"/$	c #D1D4F8",
"($	c #CED0F3",
"_$	c #D7DAF8",
":$	c #CFD1EF",
"<$	c #E2E2FA",
"[$	c #DFE0F7",
"}$	c #DADBF7",
"|$	c #E6E8F9",
"1$	c #E5E6F7",
"2$	c #E5E4F8",
"3$	c #D2CFF0",
"4$	c #C5C2E9",
"5$	c #CBCBF1",
"6$	c #E1E6F9",
"7$	c #DEE5F9",
"8$	c #CBD1ED",
"9$	c #D4E0F6",
"0$	c #D0DBF5",
"a$	c #D0DAF5",
"b$	c #CFD6F4",
"c$	c #C6CAF0",
"d$	c #C5C5F1",
"e$	c #C1C4EC",
"f$	c #C4C2EB",
"g$	c #C7C3E8",
"h$	c #CECBEA",
"i$	c #CDCDE8",
"j$	c #D8D8EC",
"k$	c #CECDE8",
"l$	c #D6D4EB",
"m$	c #CFCDE3",
"n$	c #C4C3D7",
"o$	c #B6B4CB",
"p$	c #B9B9CE",
"q$	c #CBC2D5",
"r$	c #DC9B82",
"s$	c #D17C43",
"t$	c #CA7E50",
"u$	c #C0765F",
"v$	c #BE7B66",
"w$	c #C68571",
"x$	c #C18375",
"y$	c #BC8074",
"z$	c #C78F82",
"A$	c #C68F81",
"B$	c #C38880",
"C$	c #B2796C",
"D$	c #7F4A34",
"E$	c #744022",
"F$	c #B0876E",
"G$	c #D3C7D8",
"H$	c #D3CEE3",
"I$	c #C7C3DB",
"J$	c #C0BFDA",
"K$	c #AAA6C1",
"L$	c #ACA7C2",
"M$	c #ABA7C2",
"N$	c #A8A8C2",
"O$	c #ABA9C1",
"P$	c #B4B3D1",
"Q$	c #C4C9EA",
"R$	c #C8CDEF",
"S$	c #CBD1F0",
"T$	c #D1D5F3",
"U$	c #D4D6F1",
"V$	c #D9D9F2",
"W$	c #DCDCF1",
"X$	c #D3D6F2",
"Y$	c #E3E2F5",
"Z$	c #E3E1F4",
"`$	c #E7E5F7",
" %	c #CBC9EE",
".%	c #C4C2E6",
"+%	c #C1C1E7",
"@%	c #C6C7E8",
"#%	c #CFD6F1",
"$%	c #C1CAE8",
"%%	c #D3E1F9",
"&%	c #B9C2F0",
"*%	c #BAC1F4",
"=%	c #BBC3EF",
"-%	c #C0C3EE",
";%	c #CAC9F2",
">%	c #CACAEE",
",%	c #C6C2E8",
"'%	c #D5D2F0",
")%	c #C5C1E4",
"!%	c #C2BFDD",
"~%	c #BDBADB",
"{%	c #BAB7D7",
"]%	c #B5B2D1",
"^%	c #B4B5D0",
"/%	c #B3AFC3",
"(%	c #BAAEBA",
"_%	c #D0836B",
":%	c #A35427",
"<%	c #C18C73",
"[%	c #BD725D",
"}%	c #BD7664",
"|%	c #C58272",
"1%	c #C9897E",
"2%	c #CA8A85",
"3%	c #CE8D8A",
"4%	c #D08F8D",
"5%	c #D09193",
"6%	c #CD8E8F",
"7%	c #A2655B",
"8%	c #7A4327",
"9%	c #B69078",
"0%	c #D1C2D4",
"a%	c #C5BDD0",
"b%	c #B2AEC7",
"c%	c #B9B6D2",
"d%	c #ABA6BE",
"e%	c #ADAAC2",
"f%	c #A9A5C0",
"g%	c #A9A6C1",
"h%	c #B8BBDA",
"i%	c #C7CCEC",
"j%	c #C6CCEC",
"k%	c #CBCEEE",
"l%	c #D1D4F3",
"m%	c #D6D8F4",
"n%	c #E0DFF7",
"o%	c #D7D8F5",
"p%	c #E4E7FA",
"q%	c #E5E5FA",
"r%	c #C8C3E9",
"s%	c #C6C2E7",
"t%	c #C2C1E2",
"u%	c #BBBCDC",
"v%	c #B4B5D4",
"w%	c #BAC2DF",
"x%	c #BAC3F0",
"y%	c #B9C2F1",
"z%	c #BCC2F0",
"A%	c #BEC2EE",
"B%	c #C7C9F1",
"C%	c #E0DFFA",
"D%	c #CCCEF2",
"E%	c #C3C2EA",
"F%	c #C4C2E7",
"G%	c #C2C4E7",
"H%	c #D7D8F7",
"I%	c #D2D0EE",
"J%	c #C3BEE2",
"K%	c #BFBCDB",
"L%	c #BCBAD8",
"M%	c #BBB8D4",
"N%	c #B8B4D0",
"O%	c #B6B3CC",
"P%	c #B5B1C8",
"Q%	c #B3AEC5",
"R%	c #B6A5B3",
"S%	c #BB7055",
"T%	c #B46C3E",
"U%	c #C58F79",
"V%	c #BB6F59",
"W%	c #BC7662",
"X%	c #C47D6E",
"Y%	c #CC897E",
"Z%	c #CD8783",
"`%	c #D08A8A",
" &	c #D38F90",
".&	c #D59397",
"+&	c #D18F93",
"@&	c #B0716C",
"#&	c #82492F",
"$&	c #B18F7C",
"%&	c #B5A9B8",
"&&	c #B2A6B7",
"*&	c #AAA3B9",
"=&	c #A5A3B7",
"-&	c #ABA9C0",
";&	c #BDBDD4",
">&	c #AAA5C0",
",&	c #A9A6BF",
"'&	c #AAA8C0",
")&	c #A8A7C2",
"!&	c #A6A7C4",
"~&	c #A8A8C8",
"{&	c #B4B7D6",
"]&	c #B7BBDB",
"^&	c #C5CAEA",
"/&	c #CCD0F0",
"(&	c #D1D4F0",
"_&	c #CCD2F3",
":&	c #DCE0F8",
"<&	c #E1E4F7",
"[&	c #E6E8F8",
"}&	c #E1E1F6",
"|&	c #C0BFDF",
"1&	c #B5B7D5",
"2&	c #AEB0CE",
"3&	c #BDC5E4",
"4&	c #B9C2EE",
"5&	c #B7C2EC",
"6&	c #BBC2EC",
"7&	c #C5CAEF",
"8&	c #D7DEF7",
"9&	c #DBE0F8",
"0&	c #C3C6EB",
"a&	c #C0C0E7",
"b&	c #C1BFE5",
"c&	c #BFC1E3",
"d&	c #D3D3ED",
"e&	c #CDCCE9",
"f&	c #C1BEE0",
"g&	c #BFBDDC",
"h&	c #C1BFDB",
"i&	c #C8C7E3",
"j&	c #D0D1EA",
"k&	c #D0CFE5",
"l&	c #C9C7DE",
"m&	c #B5ABC2",
"n&	c #B9A6B4",
"o&	c #C68469",
"p&	c #B66E40",
"q&	c #D49775",
"r&	c #A95C44",
"s&	c #A25B46",
"t&	c #B46E5C",
"u&	c #CD887D",
"v&	c #CE8583",
"w&	c #CF8C8B",
"x&	c #D59396",
"y&	c #D8939A",
"z&	c #D38C96",
"A&	c #B77474",
"B&	c #884F36",
"C&	c #B1948C",
"D&	c #B4A5B4",
"E&	c #B1A2BA",
"F&	c #ACA1B9",
"G&	c #B8B6CD",
"H&	c #C6C7DE",
"I&	c #AAA6BF",
"J&	c #AAA5BE",
"K&	c #A9A7BF",
"L&	c #ABA8C0",
"M&	c #B1B0CB",
"N&	c #A8A7C3",
"O&	c #A8A7C4",
"P&	c #A8A7C6",
"Q&	c #A8A8C9",
"R&	c #B9BCDC",
"S&	c #CBD0F3",
"T&	c #D4D4F6",
"U&	c #D1D5F7",
"V&	c #DEE0FA",
"W&	c #E6E9FB",
"X&	c #DFE2FA",
"Y&	c #E6E9FA",
"Z&	c #DFE0FA",
"`&	c #C6C8E8",
" *	c #B0B5D3",
".*	c #AAAECC",
"+*	c #B0B6D3",
"@*	c #B9C2ED",
"#*	c #BBC3EC",
"$*	c #D5DDF9",
"%*	c #DCE3F6",
"&*	c #E6EAF9",
"**	c #C6C8EE",
"=*	c #C4C1E8",
"-*	c #C2C1E7",
";*	c #BFC2E5",
">*	c #C1BFE2",
",*	c #C3C1E0",
"'*	c #C9C8E4",
")*	c #E1E1F1",
"!*	c #D6DAE9",
"~*	c #DBDCEF",
"{*	c #DAD8EB",
"]*	c #D8D7EB",
"^*	c #C5C0D6",
"/*	c #BCACBE",
"(*	c #CE9C8A",
"_*	c #CC845B",
":*	c #BB7658",
"<*	c #A7614F",
"[*	c #A66455",
"}*	c #A05C4A",
"|*	c #B46F5D",
"1*	c #C57F74",
"2*	c #AC6459",
"3*	c #B06B67",
"4*	c #C48183",
"5*	c #CC8990",
"6*	c #B37372",
"7*	c #8C5138",
"8*	c #C4B1B7",
"9*	c #C2B6CB",
"0*	c #AFA4BB",
"a*	c #AAA1B9",
"b*	c #ACA9BF",
"c*	c #BEBED5",
"d*	c #A9A5BE",
"e*	c #ACA9C1",
"f*	c #C6C0DD",
"g*	c #B6B3CE",
"h*	c #A7A7C3",
"i*	c #A7A7C4",
"j*	c #A9A8C6",
"k*	c #ACABCA",
"l*	c #B9BEDC",
"m*	c #C8CCE9",
"n*	c #C9CFE9",
"o*	c #D3D7F4",
"p*	c #DEE1F7",
"q*	c #E0E2F6",
"r*	c #D9DAF6",
"s*	c #D6D7F5",
"t*	c #D2D4F6",
"u*	c #B0B5D6",
"v*	c #A8AFCE",
"w*	c #A8AFCF",
"x*	c #BAC2EE",
"y*	c #BCC2EE",
"z*	c #BFC6EF",
"A*	c #DDE4FA",
"B*	c #DBE4F1",
"C*	c #E3ECF4",
"D*	c #C6C9F1",
"E*	c #C4C6EB",
"F*	c #C3C3E8",
"G*	c #C4C4E8",
"H*	c #C4C3E8",
"I*	c #C1C3E6",
"J*	c #C7C5E4",
"K*	c #D4D5EC",
"L*	c #DEDFF1",
"M*	c #E0E2F3",
"N*	c #E3E4F6",
"O*	c #DADBF0",
"P*	c #D9D7EC",
"Q*	c #D0D2E6",
"R*	c #D6ADBA",
"S*	c #DBA999",
"T*	c #D7A289",
"U*	c #B77057",
"V*	c #AC6A57",
"W*	c #A86759",
"X*	c #A96655",
"Y*	c #B56F5D",
"Z*	c #D3918B",
"`*	c #B9716D",
" =	c #A8645A",
".=	c #B9776F",
"+=	c #BD7B7C",
"@=	c #B27470",
"#=	c #B18678",
"$=	c #D9CDDE",
"%=	c #D9D2E8",
"&=	c #D5D1E7",
"*=	c #C1BCD2",
"==	c #A9A3BB",
"-=	c #A8A5BB",
";=	c #B1AEC4",
">=	c #ABA8BF",
",=	c #A6A6BE",
"'=	c #AAA8BF",
")=	c #BFBED9",
"!=	c #B1B2D0",
"~=	c #AAA7C4",
"{=	c #ABA8C7",
"]=	c #A9A7C6",
"^=	c #A7A9C7",
"/=	c #ABACCC",
"(=	c #B1B1D2",
"_=	c #C5C5E6",
":=	c #D9DAF3",
"<=	c #DADDF0",
"[=	c #DDDEF5",
"}=	c #D8DAF2",
"|=	c #BFC5E4",
"1=	c #AAB2D3",
"2=	c #A7B0CF",
"3=	c #A8B1CF",
"4=	c #C0C4F0",
"5=	c #BFC5F0",
"6=	c #C1C7F5",
"7=	c #DFE6FB",
"8=	c #E8EEF8",
"9=	c #E6EEF7",
"0=	c #C8CAF3",
"a=	c #CBC9F0",
"b=	c #CCC7EE",
"c=	c #C9C4EA",
"d=	c #C9C7E9",
"e=	c #DCD9F3",
"f=	c #EFEDFB",
"g=	c #E7E5F4",
"h=	c #EAEAFA",
"i=	c #E2E3F5",
"j=	c #E2E4F7",
"k=	c #DFDFF5",
"l=	c #E5D7EE",
"m=	c #E75D5A",
"n=	c #EE9A85",
"o=	c #DAA48F",
"p=	c #C1755E",
"q=	c #BB745E",
"r=	c #B26D5B",
"s=	c #AC6858",
"t=	c #B97162",
"u=	c #CF8E8A",
"v=	c #CD8D8D",
"w=	c #C48684",
"x=	c #CA8B8D",
"y=	c #C88B90",
"z=	c #AC7270",
"A=	c #DBBCB5",
"B=	c #D4CADD",
"C=	c #CBC7DF",
"D=	c #C7C3D9",
"E=	c #ABA7BD",
"F=	c #A9A6BE",
"G=	c #A7A7BF",
"H=	c #C6C5E2",
"I=	c #C4C5E0",
"J=	c #C6CAE6",
"K=	c #AAA9C8",
"L=	c #ADABC7",
"M=	c #ADAAC7",
"N=	c #AAA8C5",
"O=	c #ACACC8",
"P=	c #ACAFCE",
"Q=	c #B3B5D8",
"R=	c #C8CAE7",
"S=	c #DEE2F5",
"T=	c #D3D8F1",
"U=	c #D3D8F3",
"V=	c #CCD5EE",
"W=	c #B7C0E0",
"X=	c #AAB1CE",
"Y=	c #D8E2F5",
"Z=	c #D2DAF4",
"`=	c #C2C7F4",
" -	c #D1D7F7",
".-	c #ECEEF7",
"+-	c #E9ECF6",
"@-	c #CDCBEE",
"#-	c #CEC9EF",
"$-	c #CCC8EB",
"%-	c #CAC7EB",
"&-	c #CFCDEE",
"*-	c #E7E6F6",
"=-	c #F0F1F7",
"--	c #EFEEF3",
";-	c #E9EAEF",
">-	c #D8D8E7",
",-	c #DCDBEA",
"'-	c #E1DFEF",
")-	c #DCD1E9",
"!-	c #E4767E",
"~-	c #F4957E",
"{-	c #D59A86",
"]-	c #BD6E55",
"^-	c #BB6C55",
"/-	c #B86A55",
"(-	c #B66857",
"_-	c #C77C73",
":-	c #D28F8D",
"<-	c #D39193",
"[-	c #D18C8F",
"}-	c #D18F92",
"|-	c #CC8E91",
"1-	c #BE7D7A",
"2-	c #D2A2A2",
"3-	c #DCCAE0",
"4-	c #DAD2E6",
"5-	c #D4D0E6",
"6-	c #CFCCE0",
"7-	c #CAC8DB",
"8-	c #B7B3C9",
"9-	c #ACA6BB",
"0-	c #AAA7BA",
"a-	c #AAA6BC",
"b-	c #C6C4E1",
"c-	c #CDCDE9",
"d-	c #C3C7E4",
"e-	c #ADABCA",
"f-	c #ABA9C3",
"g-	c #AAA9C1",
"h-	c #B2B2CC",
"i-	c #B8B8D5",
"j-	c #AFB3D0",
"k-	c #AEB0CF",
"l-	c #B2B4D3",
"m-	c #B3B5D5",
"n-	c #CDD0F0",
"o-	c #CED4F2",
"p-	c #C8D2EE",
"q-	c #C8D2EF",
"r-	c #B5BDDA",
"s-	c #A9B0CD",
"t-	c #E0E7FB",
"u-	c #D7DEF5",
"v-	c #C3C8F1",
"w-	c #C5CAF2",
"x-	c #DADCF4",
"y-	c #EEF0FA",
"z-	c #CDC9EC",
"A-	c #CEC8EE",
"B-	c #CDC7EB",
"C-	c #CBC7EC",
"D-	c #CAC7E8",
"E-	c #DEDCF2",
"F-	c #F2F1FA",
"G-	c #EAE8F7",
"H-	c #EBEAF7",
"I-	c #E4E3F8",
"J-	c #E1E0F7",
"K-	c #E3E0F5",
"L-	c #DFDEF4",
"M-	c #E1DEF4",
"N-	c #D7B1C2",
"O-	c #E08574",
"P-	c #DEA294",
"Q-	c #BE6D57",
"R-	c #BF6E58",
"S-	c #B96A56",
"T-	c #AB5846",
"U-	c #B6665A",
"V-	c #BC7069",
"W-	c #D28985",
"X-	c #D58C8C",
"Y-	c #D28D8D",
"Z-	c #CB898A",
"`-	c #CA7A77",
" ;	c #D9A7AE",
".;	c #DAD0E3",
"+;	c #D5CFE5",
"@;	c #CBC9E2",
"#;	c #CDCAE0",
"$;	c #CECBE0",
"%;	c #C8C6DC",
"&;	c #B7B1C9",
"*;	c #ACA5BD",
"=;	c #AAA7BF",
"-;	c #ADAABE",
";;	c #C3C1DB",
">;	c #D2D1EC",
",;	c #C3C2DF",
"';	c #AEABC6",
");	c #AFACC6",
"!;	c #B6B5CD",
"~;	c #CACBE5",
"{;	c #C9CCE9",
"];	c #BEC2DF",
"^;	c #AAADCA",
"/;	c #AEAECB",
"(;	c #AEAECC",
"_;	c #B1B3D2",
":;	c #C4CDE9",
"<;	c #CEDAF5",
"[;	c #C7D0F0",
"};	c #C5CDEE",
"|;	c #ABB2D1",
"1;	c #C3C9F1",
"2;	c #BEC3EA",
"3;	c #C2C7ED",
"4;	c #C6CBED",
"5;	c #C4C6EC",
"6;	c #CDCDEE",
"7;	c #CAC7EC",
"8;	c #CAC5EA",
"9;	c #CAC4EA",
"0;	c #CBC3E8",
"a;	c #C9C4E5",
"b;	c #D7D2EE",
"c;	c #EDEBF7",
"d;	c #E5E3ED",
"e;	c #E3E3EE",
"f;	c #E2E1EE",
"g;	c #DFDDED",
"h;	c #DBDBEF",
"i;	c #DADBEF",
"j;	c #DBDEF1",
"k;	c #CDC1D2",
"l;	c #DFB2B5",
"m;	c #E0A9A1",
"n;	c #BD705C",
"o;	c #BA6D5A",
"p;	c #B86B59",
"q;	c #BF7568",
"r;	c #C88983",
"s;	c #D19696",
"t;	c #D28F8C",
"u;	c #D38D8A",
"v;	c #CE8C87",
"w;	c #CA8786",
"x;	c #DDC6D6",
"y;	c #D4CCE2",
"z;	c #D4CFE4",
"A;	c #CFCBE2",
"B;	c #D0CDE0",
"C;	c #D0CDE2",
"D;	c #C6C3DA",
"E;	c #ADA7BE",
"F;	c #ABA3B9",
"G;	c #AAA4BB",
"H;	c #ABA5BC",
"I;	c #ACA8BB",
"J;	c #C5C1DA",
"K;	c #C9C6E0",
"L;	c #AFACC7",
"M;	c #BFBFD9",
"N;	c #BDBDD9",
"O;	c #C2C3DF",
"P;	c #BBC1DF",
"Q;	c #B7BCDA",
"R;	c #A5A8C6",
"S;	c #A8AAC8",
"T;	c #A8A9C6",
"U;	c #A7A8C4",
"V;	c #AAAECB",
"W;	c #BBC4E1",
"X;	c #CBD3F0",
"Y;	c #CBD4F1",
"Z;	c #B1B7D7",
"`;	c #BBC2ED",
" >	c #BBC3E9",
".>	c #CBCFF0",
"+>	c #D6D9F2",
"@>	c #CBCDED",
"#>	c #C7C7ED",
"$>	c #CAC6EA",
"%>	c #C9C5E8",
"&>	c #D2CDEB",
"*>	c #E9E8F6",
"=>	c #F4F3F9",
"->	c #EEECF7",
";>	c #F1F0FA",
">>	c #EDEAF8",
",>	c #E5E3F6",
"'>	c #DADCF1",
")>	c #DCE0F5",
"!>	c #D3CDDE",
"~>	c #E1D9EE",
"{>	c #D6A9AC",
"]>	c #BA6F5B",
"^>	c #B36651",
"/>	c #AE5C4A",
"(>	c #B3594F",
"_>	c #C46964",
":>	c #CA7E7A",
"<>	c #C6827A",
"[>	c #D18F88",
"}>	c #CE8D88",
"|>	c #C99193",
"1>	c #D6B3BC",
"2>	c #D1C8DD",
"3>	c #CFC9E0",
"4>	c #D3D0E6",
"5>	c #CAC7E0",
"6>	c #C7C4DA",
"7>	c #BAB7CD",
"8>	c #AAA3B7",
"9>	c #AAA4B8",
"0>	c #ABA6BA",
"a>	c #B5B3C8",
"b>	c #A9A7C0",
"c>	c #ABA9BF",
"d>	c #B6B6CF",
"e>	c #C5C5E1",
"f>	c #C7C7E5",
"g>	c #C7CBEC",
"h>	c #BDC0DB",
"i>	c #ABACC8",
"j>	c #A6AAC5",
"k>	c #A9A9C7",
"l>	c #A7AAC6",
"m>	c #A7ADC8",
"n>	c #A7AECC",
"o>	c #AEB7D5",
"p>	c #B2B9D6",
"q>	c #BBC0E9",
"r>	c #BCC4E9",
"s>	c #DAE1F6",
"t>	c #DBE1F1",
"u>	c #D8DCF1",
"v>	c #C8C7EF",
"w>	c #C8C4EB",
"x>	c #C9C5EA",
"y>	c #D2CDE8",
"z>	c #EBE9F5",
"A>	c #EDEBF1",
"B>	c #E2E1E8",
"C>	c #E2E0EA",
"D>	c #E5E1F0",
"E>	c #E2DFF0",
"F>	c #DFDEF3",
"G>	c #D7D8EC",
"H>	c #D5D3E8",
"I>	c #BFBBCE",
"J>	c #D6D1E5",
"K>	c #D3B1B7",
"L>	c #B9705C",
"M>	c #B86F5E",
"N>	c #B66959",
"O>	c #B96156",
"P>	c #CE716F",
"Q>	c #D48583",
"R>	c #CA847E",
"S>	c #CA877E",
"T>	c #C58E86",
"U>	c #D5C3D3",
"V>	c #C4BDD0",
"W>	c #D1CDE3",
"X>	c #CBC7DC",
"Y>	c #D8D0E7",
"Z>	c #D0CCE2",
"`>	c #D1CDE4",
" ,	c #CDC9DF",
".,	c #CBC9E0",
"+,	c #B1ACC3",
"@,	c #ABA2B7",
"#,	c #ACA2B7",
"$,	c #ABA3B7",
"%,	c #ABA6BB",
"&,	c #BEBDD2",
"*,	c #A9A5BD",
"=,	c #ADA9C0",
"-,	c #B6B4CD",
";,	c #C8C9E5",
">,	c #C4C9E6",
",,	c #C5CBE9",
"',	c #C2C4DF",
"),	c #B5B5D1",
"!,	c #A8A9C5",
"~,	c #A9A8C5",
"{,	c #AAAAC6",
"],	c #A9AFCD",
"^,	c #AEB4D2",
"/,	c #B5BBD9",
"(,	c #C2C7EC",
"_,	c #DDE4F9",
":,	c #E7ECFA",
"<,	c #E4E8F7",
"[,	c #EAF0F9",
"},	c #D5D6F1",
"|,	c #C9C4E7",
"1,	c #C9C2E7",
"2,	c #C8C2E6",
"3,	c #C8C3E4",
"4,	c #D8D4ED",
"5,	c #E4E5F6",
"6,	c #E3E3F1",
"7,	c #E3E2F3",
"8,	c #DFDEF1",
"9,	c #DEDEF5",
"0,	c #D8D8EF",
"a,	c #DBDAEF",
"b,	c #C7C5DA",
"c,	c #C0BBD2",
"d,	c #C7A4AA",
"e,	c #CB8A7B",
"f,	c #B66F5C",
"g,	c #B9715F",
"h,	c #C57B72",
"i,	c #D08985",
"j,	c #D18F8D",
"k,	c #C88A86",
"l,	c #C1867C",
"m,	c #CA9D9C",
"n,	c #D7CCDD",
"o,	c #D7CDE1",
"p,	c #D8D2E9",
"q,	c #D0C8DE",
"r,	c #D6D2E8",
"s,	c #C6C2D8",
"t,	c #C8C4DA",
"u,	c #C8C4D9",
"v,	c #CAC5DD",
"w,	c #BBB5CC",
"x,	c #AAA2B6",
"y,	c #A9A3B9",
"z,	c #B6B4CA",
"A,	c #C4C4DB",
"B,	c #BCB9D1",
"C,	c #B0ACC5",
"D,	c #CFCEE5",
"E,	c #D2D3EA",
"F,	c #ABAEC6",
"G,	c #A6A9C1",
"H,	c #B2B6CC",
"I,	c #BFC4DB",
"J,	c #C2C7E1",
"K,	c #ACB1CF",
"L,	c #B2B7D5",
"M,	c #B8BDDB",
"N,	c #C7CCEE",
"O,	c #DFE6F5",
"P,	c #E2EBF4",
"Q,	c #DDE4F2",
"R,	c #E2EAF4",
"S,	c #D1D4EB",
"T,	c #C9C6E7",
"U,	c #C8C3E3",
"V,	c #CAC3E2",
"W,	c #C4C0DF",
"X,	c #C5C0DC",
"Y,	c #C3BCDD",
"Z,	c #DFDDF3",
"`,	c #E4E4F4",
" '	c #E5E5F7",
".'	c #DADAED",
"+'	c #D6D6ED",
"@'	c #CFD0E7",
"#'	c #B1ACBE",
"$'	c #B2A8BB",
"%'	c #B78D93",
"&'	c #B7705D",
"*'	c #B56F5B",
"='	c #AD6651",
"-'	c #B76F5F",
";'	c #CB867C",
">'	c #C78981",
",'	c #BE8179",
"''	c #BF817A",
")'	c #CA9FA5",
"!'	c #C9BBCB",
"~'	c #D0C4D5",
"{'	c #D6CFE1",
"]'	c #D3C8DF",
"^'	c #CEC7DD",
"/'	c #C5BED3",
"('	c #CCC6DB",
"_'	c #C4BFD4",
":'	c #BEB7CE",
"<'	c #ACA3B8",
"['	c #ACA2B6",
"}'	c #ACA1B7",
"|'	c #AEA0B7",
"1'	c #ACA2B5",
"2'	c #B2ABBF",
"3'	c #C5C5DC",
"4'	c #C5C4DC",
"5'	c #CBC9E1",
"6'	c #B3B0C9",
"7'	c #B5B0C9",
"8'	c #C3BFD9",
"9'	c #C2C0DA",
"0'	c #B2B2CE",
"a'	c #B0B0C8",
"b'	c #AAACC7",
"c'	c #C1C5DE",
"d'	c #C7CBE2",
"e'	c #C7CDE5",
"f'	c #AEB2D0",
"g'	c #BEC1DF",
"h'	c #BCBDDC",
"i'	c #C5CAEC",
"j'	c #E2E9FC",
"k'	c #E4EBFA",
"l'	c #E1E8F8",
"m'	c #E9EEFA",
"n'	c #D4D7EF",
"o'	c #C9C7E8",
"p'	c #C9C3E3",
"q'	c #D0C9E9",
"r'	c #CDC5E2",
"s'	c #C5BDD9",
"t'	c #C3BDD7",
"u'	c #D8D5EB",
"v'	c #DDDDED",
"w'	c #DFDFEF",
"x'	c #D2D4E8",
"y'	c #D2D3E7",
"z'	c #C5C3D8",
"A'	c #B3ACC2",
"B'	c #B3ACC0",
"C'	c #B3A7BB",
"D'	c #C08C91",
"E'	c #B46A5B",
"F'	c #AE6752",
"G'	c #A05942",
"H'	c #9D553E",
"I'	c #A8604C",
"J'	c #B87268",
"K'	c #C2807B",
"L'	c #C78885",
"M'	c #C39294",
"N'	c #BDA8B8",
"O'	c #CDBBCB",
"P'	c #DACBDC",
"Q'	c #D6C8DF",
"R'	c #DBD1E7",
"S'	c #D2C8E0",
"T'	c #D6CDE1",
"U'	c #AFA5B9",
"V'	c #AFA4B9",
"W'	c #AEA2B8",
"X'	c #B0A3B7",
"Y'	c #ADA1B5",
"Z'	c #AEA1B6",
"`'	c #B7B1C3",
" )	c #CBCAE0",
".)	c #CECDE4",
"+)	c #D3D1E8",
"@)	c #D2CFE3",
"#)	c #B8B2C8",
"$)	c #B9B3CD",
"%)	c #B7B3CC",
"&)	c #B5B2CD",
"*)	c #ACAEC8",
"=)	c #B9BCD7",
"-)	c #C9CEEA",
";)	c #B4BAD6",
">)	c #AAAFCB",
",)	c #C2C7E5",
"')	c #D9DCF4",
"))	c #C2C2E3",
"!)	c #BEC3E6",
"~)	c #D9E0F4",
"{)	c #DFE8F4",
"])	c #E3E8F4",
"^)	c #E9EEF7",
"/)	c #C5C3E4",
"()	c #C8C2E2",
"_)	c #C8C3E2",
":)	c #D6CFED",
"<)	c #E8E0F7",
"[)	c #CCC4DE",
"})	c #C2BED7",
"|)	c #C4BCD4",
"1)	c #CDC9DC",
"2)	c #DFDCEA",
"3)	c #E4E1F1",
"4)	c #E0DDF1",
"5)	c #B4AEC1",
"6)	c #B2AEBE",
"7)	c #B3ABBD",
"8)	c #BAA8B8",
"9)	c #CC8D86",
"0)	c #B46A5A",
"a)	c #B16959",
"b)	c #B66C5C",
"c)	c #C57B70",
"d)	c #CA8279",
"e)	c #CC8582",
"f)	c #D18588",
"g)	c #CF8589",
"h)	c #C79DA8",
"i)	c #826468",
"j)	c #BEA3A7",
"k)	c #D3C4CD",
"l)	c #D5C5D5",
"m)	c #D5C8DC",
"n)	c #D0C2DB",
"o)	c #C7BAD1",
"p)	c #B0A4B6",
"q)	c #B1A4B6",
"r)	c #B5A8BB",
"s)	c #BDB0C4",
"t)	c #AFA2B6",
"u)	c #B8B1C2",
"v)	c #CEC9DC",
"w)	c #D0CBDF",
"x)	c #D2D0E5",
"y)	c #C3BAD3",
"z)	c #BCB6CD",
"A)	c #C6C1D9",
"B)	c #D8D4EB",
"C)	c #C5C1DC",
"D)	c #B3B1C9",
"E)	c #AAA9BF",
"F)	c #B2B5D1",
"G)	c #A7ACCA",
"H)	c #D1D5F1",
"I)	c #DEDFF8",
"J)	c #D3D4EC",
"K)	c #B9BDE2",
"L)	c #D8DEFB",
"M)	c #DEE6FD",
"N)	c #DEE4F9",
"O)	c #E5ECFC",
"P)	c #CBCDE9",
"Q)	c #C5C2E2",
"R)	c #C7C3E0",
"S)	c #D6D1EC",
"T)	c #E6E0F7",
"U)	c #D4CFE6",
"V)	c #C0BCD4",
"W)	c #C1B9D1",
"X)	c #BDB6C9",
"Y)	c #B9B1C6",
"Z)	c #B4ADC3",
"`)	c #B2AAC1",
" !	c #B0A9BC",
".!	c #AFA8B8",
"+!	c #BBAEBD",
"@!	c #CD9A9C",
"#!	c #DD8E7D",
"$!	c #B56A5A",
"%!	c #B16859",
"&!	c #B4685C",
"*!	c #C67972",
"=!	c #CC7B79",
"-!	c #CF8080",
";!	c #D48386",
">!	c #CC949E",
",!	c #B59EB0",
"'!	c #543B42",
")!	c #69504B",
"!!	c #BAA19C",
"~!	c #D7BDC0",
"{!	c #D5BDC4",
"]!	c #C5AFBC",
"^!	c #B4A2B2",
"/!	c #AFA4B1",
"(!	c #B8ACBE",
"_!	c #CBBDCE",
":!	c #BAAEBF",
"<!	c #B0A4B7",
"[!	c #B1A4B8",
"}!	c #AFA3B7",
"|!	c #B7AFC2",
"1!	c #C8C3D9",
"2!	c #C9C7DC",
"3!	c #D2CFE6",
"4!	c #D4D1EA",
"5!	c #BDB4CF",
"6!	c #CEC7E0",
"7!	c #E1E0F8",
"8!	c #DBDBF0",
"9!	c #CAC9E3",
"0!	c #B7B8D0",
"a!	c #A7A8BF",
"b!	c #A7ABC3",
"c!	c #B0B5D2",
"d!	c #D2D7EF",
"e!	c #DDE0F1",
"f!	c #D1D3EC",
"g!	c #B2BADA",
"h!	c #D1D9F4",
"i!	c #DCE3F8",
"j!	c #D6DDF2",
"k!	c #DCE3F5",
"l!	c #C4C6E5",
"m!	c #C3C0DB",
"n!	c #C3C1D9",
"o!	c #D4D1E7",
"p!	c #CBC6DB",
"q!	c #C1BAD1",
"r!	c #C1B8CE",
"s!	c #C1B5CC",
"t!	c #BDB1C6",
"u!	c #B9ADC2",
"v!	c #B4AABF",
"w!	c #AFA4B7",
"x!	c #B4A7B8",
"y!	c #CEBDC8",
"z!	c #D9BCC6",
"A!	c #C88A82",
"B!	c #CD7863",
"C!	c #BA6A5B",
"D!	c #B3675A",
"E!	c #B3675B",
"F!	c #C3736D",
"G!	c #CD7976",
"H!	c #CE7F79",
"I!	c #C57F83",
"J!	c #CEB7CC",
"K!	c #9B8A9C",
"L!	c #4D3A42",
"M!	c #463636",
"N!	c #49332A",
"O!	c #875F4E",
"P!	c #A1776A",
"Q!	c #B4918F",
"R!	c #BEA2A8",
"S!	c #BFA8B2",
"T!	c #C9B4C2",
"U!	c #CDBACA",
"V!	c #BEB0C0",
"W!	c #B1A3B7",
"X!	c #B3A9BC",
"Y!	c #CDC8DF",
"Z!	c #CAC7DD",
"`!	c #D4D0E7",
" ~	c #B8B1CB",
".~	c #D3CEE8",
"+~	c #DBD8F1",
"@~	c #D6D5EC",
"#~	c #D1D0EC",
"$~	c #C9C9E4",
"%~	c #A9A9BF",
"&~	c #B5B8D3",
"*~	c #CFD6F0",
"=~	c #DBE3F7",
"-~	c #DFE5F8",
";~	c #DFE1F5",
">~	c #B0BADD",
",~	c #CBD4F0",
"'~	c #DFE5FC",
")~	c #D9E0FA",
"!~	c #DFE6FA",
"~~	c #BDBAD6",
"{~	c #BEBBD3",
"]~	c #BFBBD5",
"^~	c #C0B8D1",
"/~	c #C1B7CE",
"(~	c #C8BCD2",
"_~	c #D9CDE5",
":~	c #DED1E6",
"<~	c #CEC2D6",
"[~	c #BCAABB",
"}~	c #C1A0A7",
"|~	c #C59790",
"1~	c #D8A594",
"2~	c #D1B3B8",
"3~	c #C49492",
"4~	c #B4674F",
"5~	c #BA6F5E",
"6~	c #B3695F",
"7~	c #B4675C",
"8~	c #C3726C",
"9~	c #C26F69",
"0~	c #BA7771",
"a~	c #C9B2C5",
"b~	c #C7BBD2",
"c~	c #8C7D8E",
"d~	c #48383E",
"e~	c #3E3537",
"f~	c #3B302C",
"g~	c #423027",
"h~	c #573827",
"i~	c #674233",
"j~	c #7F5446",
"k~	c #8B5E53",
"l~	c #9B706A",
"m~	c #AD8B8B",
"n~	c #BDA2AB",
"o~	c #C0ACBA",
"p~	c #B6A5B8",
"q~	c #AFA3B9",
"r~	c #B3A6BB",
"s~	c #C6BFD5",
"t~	c #CCC6DC",
"u~	c #D4D1E9",
"v~	c #CAC6DC",
"w~	c #B7AFCA",
"x~	c #D2CEE6",
"y~	c #DEDDF4",
"z~	c #D5D6EC",
"A~	c #C8C8DE",
"B~	c #C8C8DF",
"C~	c #ACAAC2",
"D~	c #ACABC0",
"E~	c #BFC1DB",
"F~	c #CFD3ED",
"G~	c #DBDFF4",
"H~	c #D0D3EC",
"I~	c #D1D3E9",
"J~	c #BBC3E5",
"K~	c #BEC8E2",
"L~	c #D1D7EE",
"M~	c #D1D6ED",
"N~	c #D2D8ED",
"O~	c #B9B9D8",
"P~	c #B9B7D2",
"Q~	c #BBB6CD",
"R~	c #BCB6CC",
"S~	c #BDB6CD",
"T~	c #BFB6CE",
"U~	c #C5B7D1",
"V~	c #E1D7EE",
"W~	c #DED1E5",
"X~	c #D4BAC8",
"Y~	c #C59A9D",
"Z~	c #AF7C76",
"`~	c #966152",
" {	c #A87561",
".{	c #D6A992",
"+{	c #C8ADB5",
"@{	c #C0A7AC",
"#{	c #B29B94",
"${	c #B6A19E",
"%{	c #B4A0A0",
"&{	c #B26D65",
"*{	c #B46258",
"={	c #B77975",
"-{	c #C4B1C2",
";{	c #C6BCD7",
">{	c #C3B8D2",
",{	c #685762",
"'{	c #433536",
"){	c #3D3230",
"!{	c #392F28",
"~{	c #33261D",
"{{	c #36261A",
"]{	c #3D2A1B",
"^{	c #483021",
"/{	c #4E3123",
"({	c #553527",
"_{	c #5D3B2F",
":{	c #6C4537",
"<{	c #886156",
"[{	c #AF8B8E",
"}{	c #B5A0AD",
"|{	c #BDAFBE",
"1{	c #CCC1D6",
"2{	c #CCC1D7",
"3{	c #D2CCE6",
"4{	c #C5BFD7",
"5{	c #BBB1C8",
"6{	c #D9D3EA",
"7{	c #D5D3EA",
"8{	c #D7D6EC",
"9{	c #D5D2EC",
"0{	c #B5B3CB",
"a{	c #A7A5BC",
"b{	c #A6A6BC",
"c{	c #A6A8BE",
"d{	c #AAACC3",
"e{	c #ADAFC8",
"f{	c #B1B3D1",
"g{	c #B6B7D5",
"h{	c #BFC8E5",
"i{	c #B6BDDB",
"j{	c #D2D7F2",
"k{	c #CFD4F0",
"l{	c #D7DCF6",
"m{	c #B4B4D0",
"n{	c #B5B1CA",
"o{	c #B7B1C7",
"p{	c #BCB1C8",
"q{	c #BDB2C6",
"r{	c #C0B4CC",
"s{	c #CCBFD5",
"t{	c #CFB4C6",
"u{	c #C29698",
"v{	c #AC7A70",
"w{	c #815240",
"x{	c #643B2C",
"y{	c #674836",
"z{	c #986B55",
"A{	c #D3A88E",
"B{	c #C1AAB0",
"C{	c #A99697",
"D{	c #857066",
"E{	c #837165",
"F{	c #8C7671",
"G{	c #A96C66",
"H{	c #B78388",
"I{	c #C0B1C2",
"J{	c #C3BCD4",
"K{	c #C0BCD9",
"L{	c #A093AA",
"M{	c #4A3838",
"N{	c #3E332F",
"O{	c #3A312C",
"P{	c #372C24",
"Q{	c #312518",
"R{	c #302518",
"S{	c #332617",
"T{	c #352718",
"U{	c #352619",
"V{	c #362619",
"W{	c #38271D",
"X{	c #38291E",
"Y{	c #432E22",
"Z{	c #503229",
"`{	c #533A31",
" ]	c #AB979F",
".]	c #C8BBCF",
"+]	c #CABCD1",
"@]	c #CCC2DA",
"#]	c #B6ACC5",
"$]	c #BEB4CB",
"%]	c #D7D1E8",
"&]	c #D8D5ED",
"*]	c #D6D5EB",
"=]	c #C0BFD5",
"-]	c #A9A6BD",
";]	c #A7A7B9",
">]	c #A6A5BA",
",]	c #A8A9C0",
"']	c #AEAFC8",
")]	c #B1B0CD",
"!]	c #B5B5D2",
"~]	c #C0C5E4",
"{]	c #B2B5D0",
"]]	c #C0C3DD",
"^]	c #D1D6E8",
"/]	c #B2B2C9",
"(]	c #B2AEC6",
"_]	c #B5AEC5",
":]	c #B8ADC1",
"<]	c #C2ABBC",
"[]	c #B78C8E",
"}]	c #A6736D",
"|]	c #865247",
"1]	c #5D3524",
"2]	c #4C2C1B",
"3]	c #4D3424",
"4]	c #442E1B",
"5]	c #8E644C",
"6]	c #CEA692",
"7]	c #BFA5A9",
"8]	c #A9928E",
"9]	c #826C5F",
"0]	c #806F66",
"a]	c #968782",
"b]	c #BBA6B3",
"c]	c #BCB1C5",
"d]	c #BCB9D0",
"e]	c #BDBCD8",
"f]	c #B4ABC2",
"g]	c #544349",
"h]	c #3E332D",
"i]	c #3B3229",
"j]	c #392F26",
"k]	c #342A20",
"l]	c #302514",
"m]	c #332819",
"n]	c #322819",
"o]	c #332719",
"p]	c #35281E",
"q]	c #342922",
"r]	c #35291E",
"s]	c #382E25",
"t]	c #433434",
"u]	c #5E4E50",
"v]	c #C4B7C3",
"w]	c #CCBFD0",
"x]	c #D1C4D8",
"y]	c #B8AAC2",
"z]	c #C2B9D0",
"A]	c #D7D2E9",
"B]	c #CECCE4",
"C]	c #D6D3E9",
"D]	c #A9A7BD",
"E]	c #B9B9CD",
"F]	c #ADACC3",
"G]	c #A5A4BC",
"H]	c #ACACC4",
"I]	c #BCBDD7",
"J]	c #BEC1DC",
"K]	c #C9CAE5",
"L]	c #B7BAD5",
"M]	c #BFBFDC",
"N]	c #B2B4CF",
"O]	c #AFB2CD",
"P]	c #B3B3CA",
"Q]	c #B3B0C6",
"R]	c #B3AEC3",
"S]	c #B7ABC2",
"T]	c #B8ABBF",
"U]	c #B59FB0",
"V]	c #94625F",
"W]	c #814E42",
"X]	c #643B28",
"Y]	c #4B2D1D",
"Z]	c #432B19",
"`]	c #3C2A15",
" ^	c #3C2B18",
".^	c #3F2C1A",
"+^	c #7B573B",
"@^	c #D9AD97",
"#^	c #BD9B94",
"$^	c #B3978D",
"%^	c #7E6A5F",
"&^	c #7B6E63",
"*^	c #988985",
"=^	c #B3A4AF",
"-^	c #C0B8CB",
";^	c #BEB9D1",
">^	c #BBB9D1",
",^	c #72646F",
"'^	c #43322F",
")^	c #3C3229",
"!^	c #393027",
"~^	c #362E23",
"{^	c #322A1E",
"]^	c #312517",
"^^	c #33281C",
"/^	c #332B1E",
"(^	c #31281B",
"_^	c #342819",
":^	c #36291E",
"<^	c #342A21",
"[^	c #31281F",
"}^	c #3C302E",
"|^	c #3C3533",
"1^	c #433736",
"2^	c #B09EAA",
"3^	c #C9B9C7",
"4^	c #BFB2C1",
"5^	c #B0A3B8",
"6^	c #BDB4CA",
"7^	c #CFC9DD",
"8^	c #D2CFE2",
"9^	c #C5C1D5",
"0^	c #ABA5BB",
"a^	c #A9A7BB",
"b^	c #BABCCF",
"c^	c #BABED2",
"d^	c #A8AAC2",
"e^	c #A6A8C1",
"f^	c #BFC2DD",
"g^	c #C7CCE7",
"h^	c #CDD4EE",
"i^	c #BBBFDA",
"j^	c #C8CBE5",
"k^	c #D1D4EA",
"l^	c #B7B9D2",
"m^	c #B7B0C5",
"n^	c #B5ADC1",
"o^	c #B6A9BE",
"p^	c #B6A8BA",
"q^	c #A38795",
"r^	c #5C312A",
"s^	c #492E1D",
"t^	c #462F1B",
"u^	c #422E19",
"v^	c #3B2A15",
"w^	c #352913",
"x^	c #382915",
"y^	c #3B2B17",
"z^	c #553C22",
"A^	c #6A5240",
"B^	c #735C48",
"C^	c #9D8372",
"D^	c #7A685C",
"E^	c #796B61",
"F^	c #958A84",
"G^	c #83736F",
"H^	c #7C6F71",
"I^	c #A398A4",
"J^	c #9F939E",
"K^	c #5F5151",
"L^	c #3C3028",
"M^	c #383028",
"N^	c #362E25",
"O^	c #332B20",
"P^	c #2F2718",
"Q^	c #31271B",
"R^	c #32281C",
"S^	c #332A1D",
"T^	c #332C1E",
"U^	c #2C2417",
"V^	c #30281A",
"W^	c #332A1F",
"X^	c #31271D",
"Y^	c #39302A",
"Z^	c #3A312F",
"`^	c #3F3530",
" /	c #A899A1",
"./	c #BDACBA",
"+/	c #B1A4B5",
"@/	c #AFA2B7",
"#/	c #B1A5B9",
"$/	c #C5BCD0",
"%/	c #AEAABD",
"&/	c #B1B0C4",
"*/	c #C4C9DF",
"=/	c #B8BAD0",
"-/	c #B2B5CD",
";/	c #C8CDE7",
">/	c #C5CCE8",
",/	c #CBCFEA",
"'/	c #D5D7F2",
")/	c #D5D8EF",
"!/	c #D7D8ED",
"~/	c #C7C2D9",
"{/	c #BDB2C8",
"]/	c #B8AEC2",
"^/	c #B6AABE",
"//	c #B6A7B7",
"(/	c #9E7B8A",
"_/	c #532C25",
":/	c #442C1C",
"</	c #422F1A",
"[/	c #3E2C16",
"}/	c #372A14",
"|/	c #342813",
"1/	c #362713",
"2/	c #372915",
"3/	c #45341E",
"4/	c #40331D",
"5/	c #584C3B",
"6/	c #907C6A",
"7/	c #76665A",
"8/	c #75685D",
"9/	c #908681",
"0/	c #9E8D89",
"a/	c #AB9A93",
"b/	c #B5A099",
"c/	c #9B887F",
"d/	c #3C3127",
"e/	c #383025",
"f/	c #342C21",
"g/	c #32291D",
"h/	c #31281C",
"i/	c #30261C",
"j/	c #30291D",
"k/	c #2A2314",
"l/	c #2E2618",
"m/	c #342C22",
"n/	c #30271C",
"o/	c #352C24",
"p/	c #352C27",
"q/	c #7B6D6E",
"r/	c #C0B0BC",
"s/	c #BCAFBB",
"t/	c #B9ABBB",
"u/	c #ADA3B4",
"v/	c #ADA5B7",
"w/	c #BCB7CB",
"x/	c #A9A1B8",
"y/	c #ACA6BE",
"z/	c #BFC0D7",
"A/	c #CBCDE5",
"B/	c #CBCFE3",
"C/	c #B5B7CF",
"D/	c #A6A7BE",
"E/	c #B6B9D1",
"F/	c #C7D0EC",
"G/	c #D0D4EF",
"H/	c #D5D7F0",
"I/	c #DBDFF6",
"J/	c #E2E3F9",
"K/	c #DDDCF1",
"L/	c #BFB6CD",
"M/	c #BAACC1",
"N/	c #B8A7B8",
"O/	c #946E78",
"P/	c #4E2B1F",
"Q/	c #3F2B17",
"R/	c #3F3017",
"S/	c #392A13",
"T/	c #372912",
"U/	c #342812",
"V/	c #352714",
"W/	c #332813",
"X/	c #362A14",
"Y/	c #362B15",
"Z/	c #6F6354",
"`/	c #8C7867",
" (	c #7F7264",
".(	c #84766D",
"+(	c #93867D",
"@(	c #AB9D97",
"#(	c #A09188",
"$(	c #8E7C73",
"%(	c #5D5046",
"&(	c #382E24",
"*(	c #362D23",
"=(	c #342B1F",
"-(	c #342B20",
";(	c #30271D",
">(	c #2B2417",
",(	c #2A2312",
"'(	c #2D2617",
")(	c #342C20",
"!(	c #352C23",
"~(	c #322A20",
"{(	c #322921",
"](	c #41352D",
"^(	c #A99AA4",
"/(	c #C7B9CA",
"((	c #C9BBCF",
"_(	c #B4A9BD",
":(	c #ADA4B6",
"<(	c #A9A4B4",
"[(	c #A7A2B5",
"}(	c #A6A3B7",
"|(	c #B2B0C6",
"1(	c #C3C3D8",
"2(	c #D2D7EA",
"3(	c #BFC4D8",
"4(	c #A9A8C2",
"5(	c #B5B8D2",
"6(	c #C3CCE7",
"7(	c #DBDCF3",
"8(	c #DEDFF3",
"9(	c #DADBF1",
"0(	c #E3E3F7",
"a(	c #D6D6E9",
"b(	c #C0B7CB",
"c(	c #BDB2C5",
"d(	c #BAADBE",
"e(	c #BBA8B7",
"f(	c #896369",
"g(	c #492B1C",
"h(	c #3C2A14",
"i(	c #3B2C14",
"j(	c #382912",
"k(	c #362813",
"l(	c #342714",
"m(	c #342712",
"n(	c #342810",
"o(	c #322A11",
"p(	c #756A5B",
"q(	c #9A8876",
"r(	c #897C6F",
"s(	c #7A6D67",
"t(	c #84756D",
"u(	c #81726C",
"v(	c #776962",
"w(	c #72645E",
"x(	c #60564F",
"y(	c #362C22",
"z(	c #342B21",
"A(	c #332C20",
"B(	c #352F24",
"C(	c #332E21",
"D(	c #2E261B",
"E(	c #2E2619",
"F(	c #302919",
"G(	c #282111",
"H(	c #2B2413",
"I(	c #2F2719",
"J(	c #312A20",
"K(	c #33291F",
"L(	c #32281F",
"M(	c #2E251C",
"N(	c #312920",
"O(	c #382F2A",
"P(	c #82747A",
"Q(	c #C9BBCA",
"R(	c #BBAEBF",
"S(	c #AFA5BA",
"T(	c #AEA4B6",
"U(	c #A8A2B4",
"V(	c #A8A4B5",
"W(	c #AFA9BF",
"X(	c #BCBBD0",
"Y(	c #ACA9C3",
"Z(	c #B7BBD3",
"`(	c #C0C9E6",
" _	c #D0D1E6",
"._	c #D9DAEF",
"+_	c #D7D6EE",
"@_	c #DDDBF1",
"#_	c #D1CFE4",
"$_	c #BDB4C8",
"%_	c #BAAFC1",
"&_	c #B9ACBB",
"*_	c #B8A6B3",
"=_	c #86696D",
"-_	c #492B1B",
";_	c #3C2915",
">_	c #382B13",
",_	c #352912",
"'_	c #332812",
")_	c #332814",
"!_	c #332715",
"~_	c #312A13",
"{_	c #5C5346",
"]_	c #746A5E",
"^_	c #978C84",
"/_	c #9A9190",
"(_	c #72655F",
"__	c #81746D",
":_	c #8E7E78",
"<_	c #988781",
"[_	c #524841",
"}_	c #352D22",
"|_	c #352B21",
"1_	c #352C22",
"2_	c #342D22",
"3_	c #2C2516",
"4_	c #28210F",
"5_	c #2B2412",
"6_	c #302819",
"7_	c #332E23",
"8_	c #302B20",
"9_	c #32291E",
"0_	c #31261D",
"a_	c #322922",
"b_	c #2C2419",
"c_	c #362C26",
"d_	c #998A8D",
"e_	c #C7B8C5",
"f_	c #CBBCCD",
"g_	c #C7B9CC",
"h_	c #B2A7BB",
"i_	c #B0A5B8",
"j_	c #A9A2B5",
"k_	c #A9A4B6",
"l_	c #B0A7BB",
"m_	c #B1A9BE",
"n_	c #B4AAC1",
"o_	c #B0ACC2",
"p_	c #AEAAC4",
"q_	c #B4B6CE",
"r_	c #C2CBE8",
"s_	c #C0C3D7",
"t_	c #DBDDF2",
"u_	c #D6D4EC",
"v_	c #D7D8EE",
"w_	c #CDCBE0",
"x_	c #B8B1C4",
"y_	c #B7ACBF",
"z_	c #B4A7B6",
"A_	c #B4A0AE",
"B_	c #8A6B6F",
"C_	c #3C2913",
"D_	c #352713",
"E_	c #332811",
"F_	c #332816",
"G_	c #312915",
"H_	c #302B15",
"I_	c #595347",
"J_	c #6F655D",
"K_	c #9F9591",
"L_	c #A39EA0",
"M_	c #948984",
"N_	c #A2948D",
"O_	c #9E8D84",
"P_	c #86776D",
"Q_	c #352B20",
"R_	c #352C21",
"S_	c #332A20",
"T_	c #2D2518",
"U_	c #292210",
"V_	c #29220F",
"W_	c #2F2819",
"X_	c #353024",
"Y_	c #30281E",
"Z_	c #2F271C",
"`_	c #2E291E",
" :	c #281D0E",
".:	c #372E25",
"+:	c #887C7A",
"@:	c #C2B3BC",
"#:	c #C6B8C8",
"$:	c #C1B3C8",
"%:	c #B5A9BE",
"&:	c #AFA4B5",
"*:	c #A9A2B2",
"=:	c #ABA4B5",
"-:	c #BFB9CB",
";:	c #C8C3D8",
">:	c #C6C1D5",
",:	c #B5AEC7",
"':	c #B2ACC6",
"):	c #ABABC3",
"!:	c #BCC4DE",
"~:	c #B1B3C8",
"{:	c #D3D6EB",
"]:	c #CED0E4",
"^:	c #DADCEF",
"/:	c #D2D0E7",
"(:	c #B9B0C5",
"_:	c #B6ABBE",
"::	c #B3A6B7",
"<:	c #B3A1AE",
"[:	c #8D666B",
"}:	c #442A1A",
"|:	c #3B2912",
"1:	c #352711",
"2:	c #352813",
"3:	c #322914",
"4:	c #302B16",
"5:	c #312C16",
"6:	c #302B14",
"7:	c #76715F",
"8:	c #988F82",
"9:	c #A8A3A4",
"0:	c #AAA5AA",
"a:	c #83746F",
"b:	c #7C6D66",
"c:	c #716258",
"d:	c #584D45",
"e:	c #362C23",
"f:	c #342E22",
"g:	c #352E23",
"h:	c #322920",
"i:	c #2E261A",
"j:	c #26200D",
"k:	c #28220E",
"l:	c #2C2513",
"m:	c #2F2918",
"n:	c #322E23",
"o:	c #2C2519",
"p:	c #2C2414",
"q:	c #282313",
"r:	c #262212",
"s:	c #2B2316",
"t:	c #302A20",
"u:	c #352A20",
"v:	c #A19092",
"w:	c #C8B7C6",
"x:	c #C1B1C3",
"y:	c #B6A9BC",
"z:	c #B0A4B8",
"A:	c #AAA2B5",
"B:	c #B8B3C4",
"C:	c #CFCBE0",
"D:	c #D4D1E6",
"E:	c #D2CDE1",
"F:	c #BAB3CA",
"G:	c #B4AFC7",
"H:	c #AEABC2",
"I:	c #A7A9BE",
"J:	c #AEAFC2",
"K:	c #C3C4D8",
"L:	c #D3D5E7",
"M:	c #D9DCEC",
"N:	c #CECDE0",
"O:	c #B9B0C2",
"P:	c #B6ACBB",
"Q:	c #B8A1B0",
"R:	c #784F52",
"S:	c #43271B",
"T:	c #382713",
"U:	c #322814",
"V:	c #302A14",
"W:	c #312B15",
"X:	c #312B16",
"Y:	c #5A5447",
"Z:	c #766D64",
"`:	c #AEA6A4",
" <	c #B1A2A7",
".<	c #6C5D57",
"+<	c #776761",
"@<	c #786B61",
"#<	c #62584E",
"$<	c #322C20",
"%<	c #352D23",
"&<	c #2C2418",
"*<	c #2B2416",
"=<	c #261F0D",
"-<	c #292211",
";<	c #2D2516",
"><	c #302B1D",
",<	c #322E25",
"'<	c #261F0C",
")<	c #221D09",
"!<	c #221C06",
"~<	c #2E2B1C",
"{<	c #2E271D",
"]<	c #32291F",
"^<	c #766660",
"/<	c #CCB8BE",
"(<	c #C4B1BE",
"_<	c #BCABBC",
":<	c #B2A6B8",
"<<	c #B6ABBB",
"[<	c #B0A5B7",
"}<	c #B9AEC0",
"|<	c #DDD5ED",
"1<	c #DBD4ED",
"2<	c #DFDAF1",
"3<	c #D1CDE1",
"4<	c #B9B5C8",
"5<	c #B2ADC1",
"6<	c #AEB1C2",
"7<	c #BBBDCE",
"8<	c #D3D6E9",
"9<	c #DADDEE",
"0<	c #CDCBDD",
"a<	c #BBB2C5",
"b<	c #B8AEBD",
"c<	c #B5A8B5",
"d<	c #B7A1B2",
"e<	c #5F3332",
"f<	c #422817",
"g<	c #3A2713",
"h<	c #352611",
"i<	c #332712",
"j<	c #322713",
"k<	c #332713",
"l<	c #312813",
"m<	c #312A16",
"n<	c #595344",
"o<	c #797268",
"p<	c #B1A6A1",
"q<	c #B19F9E",
"r<	c #98877D",
"s<	c #9F8D83",
"t<	c #A28D83",
"u<	c #574C44",
"v<	c #322B1F",
"w<	c #2B2318",
"x<	c #282012",
"y<	c #261F0F",
"z<	c #292213",
"A<	c #2D2616",
"B<	c #312A1F",
"C<	c #2F2C22",
"D<	c #221C09",
"E<	c #211B04",
"F<	c #1F1A03",
"G<	c #251E06",
"H<	c #2D2A1A",
"I<	c #2F281F",
"J<	c #473C34",
"K<	c #9A8A86",
"L<	c #BDACB1",
"M<	c #BBAFBA",
"N<	c #BBB1BF",
"O<	c #CCC1D0",
"P<	c #B8ABBC",
"Q<	c #B8ABC1",
"R<	c #D7D0E6",
"S<	c #D9D5EB",
"T<	c #E2E0F3",
"U<	c #D9D6EA",
"V<	c #D9D7E8",
"W<	c #C5C2D7",
"X<	c #ADABC0",
"Y<	c #B0B3C2",
"Z<	c #B7B5C6",
"`<	c #D1D0E5",
" [	c #D9D9EA",
".[	c #CDC8D8",
"+[	c #BCB4C7",
"@[	c #B9B0BF",
"#[	c #B7A9B4",
"$[	c #B79FAD",
"%[	c #582E29",
"&[	c #412916",
"*[	c #3A2913",
"=[	c #32230C",
"-[	c #332613",
";[	c #2E2711",
">[	c #2F2913",
",[	c #2F2915",
"'[	c #625D4C",
")[	c #928D7D",
"![	c #93887D",
"~[	c #A29087",
"{[	c #827069",
"][	c #76655F",
"^[	c #5F524B",
"/[	c #322B20",
"([	c #322A1F",
"_[	c #322A21",
":[	c #3C2D21",
"<[	c #352921",
"[[	c #30251A",
"}[	c #2C2116",
"|[	c #291E10",
"1[	c #2A1E11",
"2[	c #2E2314",
"3[	c #2F271A",
"4[	c #302A1E",
"5[	c #2E2A21",
"6[	c #1E1904",
"7[	c #201A02",
"8[	c #211A03",
"9[	c #272108",
"0[	c #2C2718",
"a[	c #2F2B1D",
"b[	c #392E24",
"c[	c #564843",
"d[	c #A59599",
"e[	c #BAAFB7",
"f[	c #CFC5D4",
"g[	c #C2B6C5",
"h[	c #BAACC3",
"i[	c #CFC5DC",
"j[	c #E0DAF0",
"k[	c #E4E2F7",
"l[	c #E1DFF6",
"m[	c #E5E3F9",
"n[	c #C7C5DC",
"o[	c #B3B4C3",
"p[	c #B7B4C4",
"q[	c #CECDDC",
"r[	c #DDDBEB",
"s[	c #CECDDD",
"t[	c #BFB5C7",
"u[	c #BAB0BF",
"v[	c #B8A9B4",
"w[	c #BAA2B0",
"x[	c #582E2A",
"y[	c #3F291A",
"z[	c #382712",
"A[	c #2F2009",
"B[	c #342511",
"C[	c #312612",
"D[	c #302612",
"E[	c #2D2611",
"F[	c #2E2913",
"G[	c #2F2A15",
"H[	c #4B4435",
"I[	c #625A4F",
"J[	c #695B4E",
"K[	c #726056",
"L[	c #66574D",
"M[	c #706156",
"N[	c #695E55",
"O[	c #322A1D",
"P[	c #332C1D",
"Q[	c #322B1D",
"R[	c #6A4D40",
"S[	c #D07D69",
"T[	c #D48C7E",
"U[	c #C08073",
"V[	c #A56B63",
"W[	c #976159",
"X[	c #925D54",
"Y[	c #55342B",
"Z[	c #34281D",
"`[	c #1C1703",
" }	c #1F1A01",
".}	c #201A01",
"+}	c #262106",
"@}	c #241E09",
"#}	c #2C2217",
"$}	c #33271B",
"%}	c #4F413A",
"&}	c #AF9FA0",
"*}	c #D5C6CE",
"=}	c #D8C9D5",
"-}	c #BBAEC0",
";}	c #E1D5ED",
">}	c #E0DBED",
",}	c #DFDDEB",
"'}	c #E1DFEE",
")}	c #DCDBEE",
"!}	c #D9D9EF",
"~}	c #BDBCCC",
"{}	c #B8B6C6",
"]}	c #BFBCCC",
"^}	c #DDDAEA",
"/}	c #CCCAD8",
"(}	c #BDB4C5",
"_}	c #BAAFBF",
":}	c #B9A9B6",
"<}	c #BAA2AF",
"[}	c #592F2B",
"}}	c #40291A",
"|}	c #32250E",
"1}	c #2A1F07",
"2}	c #30220B",
"3}	c #352710",
"4}	c #30270F",
"5}	c #2C260E",
"6}	c #2D2612",
"7}	c #302815",
"8}	c #2F2815",
"9}	c #4A4234",
"0}	c #71665D",
"a}	c #786C5F",
"b}	c #86786F",
"c}	c #91837A",
"d}	c #908172",
"e}	c #6A6252",
"f}	c #322B1C",
"g}	c #312A1C",
"h}	c #2F281C",
"i}	c #53372A",
"j}	c #B86650",
"k}	c #B76251",
"l}	c #B96B62",
"m}	c #B6706B",
"n}	c #B9716C",
"o}	c #BC746E",
"p}	c #AC6C63",
"q}	c #412A21",
"r}	c #201B09",
"s}	c #1F1801",
"t}	c #1E1800",
"u}	c #272205",
"v}	c #1F1901",
"w}	c #27210D",
"x}	c #2E2818",
"y}	c #342920",
"z}	c #3D2F26",
"A}	c #887775",
"B}	c #C7B5B7",
"C}	c #C0B0BF",
"D}	c #DDD0E6",
"E}	c #DDD7EE",
"F}	c #E3DFF8",
"G}	c #E2DFF6",
"H}	c #E3E2F7",
"I}	c #DDDDF1",
"J}	c #C8C9DB",
"K}	c #BBBCCF",
"L}	c #B9B6C8",
"M}	c #D6D1E1",
"N}	c #CFC6D7",
"O}	c #BDB1C3",
"P}	c #B9ADBD",
"Q}	c #B8A8B6",
"R}	c #BCA4B1",
"S}	c #6E4544",
"T}	c #3E2814",
"U}	c #312208",
"V}	c #2A1C03",
"W}	c #291E03",
"X}	c #34270E",
"Y}	c #2F260D",
"Z}	c #2E2410",
"`}	c #2D2512",
" |	c #2F2713",
".|	c #2E2712",
"+|	c #494234",
"@|	c #8C837A",
"#|	c #81766B",
"$|	c #7C7168",
"%|	c #75685F",
"&|	c #6A5D53",
"*|	c #3B3226",
"=|	c #2F271B",
"-|	c #2C2818",
";|	c #2D2819",
">|	c #684331",
",|	c #A4533A",
"'|	c #A75D52",
")|	c #B36F6A",
"!|	c #B4716D",
"~|	c #B3726D",
"{|	c #B26D67",
"]|	c #BB7470",
"^|	c #7D4945",
"/|	c #352721",
"(|	c #241F10",
"_|	c #1D1700",
":|	c #1F1900",
"<|	c #272107",
"[|	c #1F1903",
"}|	c #241F06",
"||	c #27210F",
"1|	c #282212",
"2|	c #282417",
"3|	c #282217",
"4|	c #292117",
"5|	c #352B1F",
"6|	c #60554D",
"7|	c #B3A1AC",
"8|	c #B9AABB",
"9|	c #CEC0D5",
"0|	c #D8CDE5",
"a|	c #DDD9E9",
"b|	c #DDD9EE",
"c|	c #E2E0EE",
"d|	c #C7C6DD",
"e|	c #D0D1E5",
"f|	c #CCCDDE",
"g|	c #B5B3C4",
"h|	c #C3C0D0",
"i|	c #C6BFD3",
"j|	c #B9ADBF",
"k|	c #B6ABBC",
"l|	c #B5A6B7",
"m|	c #C2A9B9",
"n|	c #7E585C",
"o|	c #3F2817",
"p|	c #302108",
"q|	c #291C01",
"r|	c #271B02",
"s|	c #31270E",
"t|	c #2D250E",
"u|	c #2B240E",
"v|	c #2C2411",
"w|	c #2C2613",
"x|	c #362E1E",
"y|	c #595348",
"z|	c #625A4C",
"A|	c #6F635C",
"B|	c #5C4D46",
"C|	c #685950",
"D|	c #4A4136",
"E|	c #2B2616",
"F|	c #2B2516",
"G|	c #2A2517",
"H|	c #463320",
"I|	c #834836",
"J|	c #9E5647",
"K|	c #AB6863",
"L|	c #AD6B67",
"M|	c #AB6C68",
"N|	c #AE6D6A",
"O|	c #B57675",
"P|	c #AD6F6F",
"Q|	c #54332E",
"R|	c #322822",
"S|	c #282317",
"T|	c #1B1601",
"U|	c #1E1801",
"V|	c #201A05",
"W|	c #221D0A",
"X|	c #231F08",
"Y|	c #26210F",
"Z|	c #272617",
"`|	c #272518",
" 1	c #272417",
".1	c #282115",
"+1	c #281E14",
"@1	c #2F251B",
"#1	c #3C3228",
"$1	c #88777C",
"%1	c #B5A9B7",
"&1	c #BEB1C3",
"*1	c #DACDE6",
"=1	c #D8D2E8",
"-1	c #D2D1E7",
";1	c #BFBCD2",
">1	c #B4B1C9",
",1	c #BDBECE",
"'1	c #D0CFE0",
")1	c #B9B5C9",
"!1	c #BDB9CC",
"~1	c #C0BCD0",
"{1	c #B6ABBD",
"]1	c #B3A8B7",
"^1	c #B2A4B1",
"/1	c #C3ACBC",
"(1	c #846066",
"_1	c #3F2718",
":1	c #31210A",
"<1	c #271C01",
"[1	c #251901",
"}1	c #2E250C",
"|1	c #2E260D",
"11	c #2E240C",
"21	c #2C220E",
"31	c #2B2211",
"41	c #2B2513",
"51	c #393222",
"61	c #756D60",
"71	c #6E6658",
"81	c #80756C",
"91	c #8D7C70",
"01	c #86776A",
"a1	c #433B30",
"b1	c #292514",
"c1	c #272212",
"d1	c #262213",
"e1	c #272112",
"f1	c #503825",
"g1	c #955544",
"h1	c #AA6661",
"i1	c #B06B6A",
"j1	c #B2706C",
"k1	c #B1706C",
"l1	c #B47474",
"m1	c #B47678",
"n1	c #8A5552",
"o1	c #362926",
"p1	c #2D2B22",
"q1	c #28261D",
"r1	c #252518",
"s1	c #262616",
"t1	c #2A271A",
"u1	c #232014",
"v1	c #1F1A0B",
"w1	c #29251D",
"x1	c #2A281D",
"y1	c #272519",
"z1	c #2B251A",
"A1	c #2A1F15",
"B1	c #2E241A",
"C1	c #3F322A",
"D1	c #837375",
"E1	c #B8A9B6",
"F1	c #B5A9B9",
"G1	c #D2C6DE",
"H1	c #D2CBDF",
"I1	c #D7D3E7",
"J1	c #BEB7CF",
"K1	c #B3AEC6",
"L1	c #B0AEBF",
"M1	c #BDBACB",
"N1	c #B8B3C6",
"O1	c #B5AFC1",
"P1	c #B5AEC0",
"Q1	c #B3AABB",
"R1	c #B1A5B5",
"S1	c #B2A0AD",
"T1	c #7C5559",
"U1	c #3B2612",
"V1	c #35220D",
"W1	c #291B02",
"X1	c #231700",
"Y1	c #291F06",
"Z1	c #2E260C",
"`1	c #2F230D",
" 2	c #2C200E",
".2	c #2A220F",
"+2	c #2B2512",
"@2	c #37301F",
"#2	c #7A7062",
"$2	c #73675B",
"%2	c #7B6F69",
"&2	c #6B5D55",
"*2	c #5A4C42",
"=2	c #2B1F10",
"-2	c #282110",
";2	c #27200F",
">2	c #261F10",
",2	c #25210F",
"'2	c #2B210F",
")2	c #824B37",
"!2	c #955447",
"~2	c #A96760",
"{2	c #AD6D66",
"]2	c #AD6B65",
"^2	c #AF7572",
"/2	c #B07877",
"(2	c #9E6562",
"_2	c #3D2720",
":2	c #2E2B28",
"<2	c #2B2B28",
"[2	c #292B27",
"}2	c #2A2B28",
"|2	c #2A2B26",
"12	c #2A2B25",
"22	c #262924",
"32	c #292824",
"42	c #2A2A24",
"52	c #292820",
"62	c #2C2A20",
"72	c #2F2D27",
"82	c #2A2017",
"92	c #392A22",
"02	c #857575",
"a2	c #B6A6B4",
"b2	c #B0A2B4",
"c2	c #CCC4DB",
"d2	c #D5D2E7",
"e2	c #D9D5E9",
"f2	c #BEB5CE",
"g2	c #B5ADC4",
"h2	c #C2C4D3",
"i2	c #B1AEBF",
"j2	c #B2ACBE",
"k2	c #B3ADBF",
"l2	c #B7ABBF",
"m2	c #B4A8B7",
"n2	c #AFA4B2",
"o2	c #B09EAB",
"p2	c #B7A3AC",
"q2	c #684443",
"r2	c #34210E",
"s2	c #2E1E07",
"t2	c #271D02",
"u2	c #251B03",
"v2	c #292409",
"w2	c #28220A",
"x2	c #29210D",
"y2	c #2C2110",
"z2	c #2E2414",
"A2	c #312A19",
"B2	c #473D33",
"C2	c #5D5448",
"D2	c #6D625B",
"E2	c #615249",
"F2	c #62544B",
"G2	c #281F0F",
"H2	c #282310",
"I2	c #26220F",
"J2	c #24210D",
"K2	c #221F0E",
"L2	c #221F10",
"M2	c #23200F",
"N2	c #4C301E",
"O2	c #894E3F",
"P2	c #96564C",
"Q2	c #A46358",
"R2	c #A9675E",
"S2	c #AB726D",
"T2	c #AD7976",
"U2	c #A26B65",
"V2	c #4C281C",
"W2	c #2F2A27",
"X2	c #2D2B28",
"Y2	c #2D2D2B",
"Z2	c #2D2D2C",
"`2	c #2F2F2E",
" 3	c #2E2F2E",
".3	c #2C2F30",
"+3	c #2E2F2F",
"@3	c #2D2F2D",
"#3	c #2C2D2A",
"$3	c #2A2A27",
"%3	c #2F2D2D",
"&3	c #302925",
"*3	c #2C1F14",
"=3	c #857373",
"-3	c #B3A1B2",
";3	c #AD9EB0",
">3	c #C2B7CE",
",3	c #CEC8E0",
"'3	c #B6AFC8",
")3	c #B4A9C2",
"!3	c #B4AEC7",
"~3	c #CFD1E0",
"{3	c #B4B5C4",
"]3	c #B3AFC0",
"^3	c #B4AFC0",
"/3	c #B4ACBE",
"(3	c #B2A8B8",
"_3	c #AFA5B2",
":3	c #AD9EAA",
"<3	c #AD98A2",
"[3	c #7E5B57",
"}3	c #402816",
"|3	c #322109",
"13	c #2B1D03",
"23	c #241801",
"33	c #221700",
"43	c #261F05",
"53	c #281F07",
"63	c #2A1E0B",
"73	c #2C1F10",
"83	c #2C2316",
"93	c #302A19",
"03	c #625A4E",
"a3	c #7A7066",
"b3	c #81746C",
"c3	c #8D7C75",
"d3	c #706058",
"e3	c #241F08",
"f3	c #231F0D",
"g3	c #221E0E",
"h3	c #221E0F",
"i3	c #221E0D",
"j3	c #231E09",
"k3	c #241902",
"l3	c #221301",
"m3	c #2D1503",
"n3	c #6F3F28",
"o3	c #965E4D",
"p3	c #A86F68",
"q3	c #9F645B",
"r3	c #633320",
"s3	c #2F2C2A",
"t3	c #2E2E2E",
"u3	c #2F2F2F",
"v3	c #2F2F31",
"w3	c #2F2B2C",
"x3	c #302D2E",
"y3	c #302C2B",
"z3	c #2F251D",
"A3	c #675552",
"B3	c #B19FAE",
"C3	c #AA9BAC",
"D3	c #B7AAC1",
"E3	c #B0A8C1",
"F3	c #ADA8BE",
"G3	c #B6B0C8",
"H3	c #C4C1DC",
"I3	c #D1D4E6",
"J3	c #B8B8CC",
"K3	c #B1AFC0",
"L3	c #B6AEC1",
"M3	c #B4ABBE",
"N3	c #B1A6B8",
"O3	c #AEA2B0",
"P3	c #AD9DAB",
"Q3	c #A9949C",
"R3	c #4D261C",
"S3	c #533327",
"T3	c #3B2B1B",
"U3	c #33250F",
"V3	c #291F05",
"W3	c #261C02",
"X3	c #281C03",
"Y3	c #2D1E0C",
"Z3	c #4E382B",
"`3	c #523A2E",
" 4	c #3B2F22",
".4	c #625C51",
"+4	c #6C6153",
"@4	c #72655E",
"#4	c #605248",
"$4	c #54453B",
"%4	c #251E09",
"&4	c #231D0A",
"*4	c #201C08",
"=4	c #211B06",
"-4	c #211903",
";4	c #1F1701",
">4	c #1D1501",
",4	c #1B1501",
"'4	c #181301",
")4	c #241404",
"!4	c #643A24",
"~4	c #844F3B",
"{4	c #783F2E",
"]4	c #572916",
"^4	c #281A0A",
"/4	c #2C2B25",
"(4	c #2C2C29",
"_4	c #2E2D2D",
":4	c #2F2E2E",
"<4	c #2E2E2A",
"[4	c #2E2E2B",
"}4	c #2D2E2B",
"|4	c #2E2E2C",
"14	c #2F2E2C",
"24	c #302E2D",
"34	c #342C27",
"44	c #3F2C26",
"54	c #AA97A4",
"64	c #A498AA",
"74	c #A79CB3",
"84	c #AAA1B8",
"94	c #ACA5BC",
"04	c #C7C5DE",
"a4	c #C7C7E1",
"b4	c #CBCFE2",
"c4	c #CBCDE3",
"d4	c #CBCDE2",
"e4	c #B3ACC1",
"f4	c #B3AABD",
"g4	c #ADA2AF",
"h4	c #AA9DAB",
"i4	c #A5919C",
"j4	c #623A37",
"k4	c #6D4E45",
"l4	c #644C43",
"m4	c #4B342A",
"n4	c #46311E",
"o4	c #6F5749",
"p4	c #9A7869",
"q4	c #A57969",
"r4	c #AD7362",
"s4	c #A25F4E",
"t4	c #9B503E",
"u4	c #694030",
"v4	c #4A4133",
"w4	c #5E5244",
"x4	c #655D55",
"y4	c #52463C",
"z4	c #4B3F36",
"A4	c #231D0B",
"B4	c #211E08",
"C4	c #211E06",
"D4	c #211E04",
"E4	c #1F1C02",
"F4	c #1E1B01",
"G4	c #1D1600",
"H4	c #1C1501",
"I4	c #1A1300",
"J4	c #161201",
"K4	c #160E00",
"L4	c #180E01",
"M4	c #200F01",
"N4	c #210E01",
"O4	c #201703",
"P4	c #292619",
"Q4	c #6C6666",
"R4	c #645856",
"S4	c #685F5F",
"T4	c #2F2C2E",
"U4	c #2D2C2A",
"V4	c #2C2B27",
"W4	c #2C2A27",
"X4	c #2C2A28",
"Y4	c #2C2B29",
"Z4	c #2F2D2B",
"`4	c #2E2C2B",
" 5	c #342B2A",
".5	c #3F2E2C",
"+5	c #A4939F",
"@5	c #A395A8",
"#5	c #A599AF",
"$5	c #A79BB1",
"%5	c #A59EB5",
"&5	c #C0BDD5",
"*5	c #C4C3DA",
"=5	c #B8B9C8",
"-5	c #BBBDCF",
";5	c #BFC1D4",
">5	c #B7B5C8",
",5	c #AFA8BA",
"'5	c #AFA4B6",
")5	c #ACA0B0",
"!5	c #A89BAB",
"~5	c #A994A3",
"{5	c #8A6B71",
"]5	c #5E433F",
"^5	c #402216",
"/5	c #644B41",
"(5	c #9C8071",
"_5	c #C09787",
":5	c #C48A76",
"<5	c #BF7C65",
"[5	c #B0624A",
"}5	c #A0543E",
"|5	c #783424",
"15	c #3B1E12",
"25	c #564D41",
"35	c #685F53",
"45	c #706962",
"55	c #7B6F66",
"65	c #53463C",
"75	c #241D06",
"85	c #1F1D02",
"95	c #201D01",
"05	c #201C01",
"a5	c #1E1A00",
"b5	c #1D1900",
"c5	c #1C1700",
"d5	c #1B1500",
"e5	c #1B1300",
"f5	c #181200",
"g5	c #151200",
"h5	c #131100",
"i5	c #1A1501",
"j5	c #171401",
"k5	c #272007",
"l5	c #24210E",
"m5	c #544944",
"n5	c #64534B",
"o5	c #4B403B",
"p5	c #312D2B",
"q5	c #2F2B2A",
"r5	c #2B2925",
"s5	c #2A2820",
"t5	c #2D2821",
"u5	c #2D2923",
"v5	c #2F2924",
"w5	c #322923",
"x5	c #73676C",
"y5	c #A496A3",
"z5	c #A092A4",
"A5	c #A093A6",
"B5	c #A199A9",
"C5	c #B2AEC3",
"D5	c #BDBFD5",
"E5	c #C3C6D9",
"F5	c #CACCDC",
"G5	c #C7C8D9",
"H5	c #B9B4C7",
"I5	c #ADA1B3",
"J5	c #AB9EAC",
"K5	c #A79AA8",
"L5	c #A594A4",
"M5	c #856E75",
"N5	c #472419",
"O5	c #4D3127",
"P5	c #907567",
"Q5	c #88685A",
"R5	c #98624E",
"S5	c #904C38",
"T5	c #914A39",
"U5	c #8E4738",
"V5	c #8D493A",
"W5	c #7D4235",
"X5	c #3D2313",
"Y5	c #615546",
"Z5	c #6C6356",
"`5	c #686054",
" 6	c #62584F",
".6	c #342D23",
"+6	c #211C01",
"@6	c #1D1B00",
"#6	c #1B1801",
"$6	c #1C1800",
"%6	c #1B1600",
"&6	c #181400",
"*6	c #191200",
"=6	c #161100",
"-6	c #141000",
";6	c #110F01",
">6	c #161101",
",6	c #1B1502",
"'6	c #231D06",
")6	c #201B03",
"!6	c #251C0A",
"~6	c #282114",
"{6	c #27231A",
"]6	c #262319",
"^6	c #26221B",
"/6	c #282118",
"(6	c #2C2119",
"_6	c #2C2219",
":6	c #302319",
"<6	c #34241C",
"[6	c #7E7075",
"}6	c #B2A4B3",
"|6	c #A296A8",
"16	c #9B90A0",
"26	c #9B90A1",
"36	c #A8A6BB",
"46	c #AEAEC4",
"56	c #B1B2C7",
"66	c #ADB2C5",
"76	c #C3C6D7",
"86	c #C9C9DA",
"96	c #C5C4D5",
"06	c #ACA7BB",
"a6	c #AC9FB2",
"b6	c #A89DAA",
"c6	c #A599A8",
"d6	c #A797A4",
"e6	c #8A747D",
"f6	c #4B2620",
"g6	c #755B55",
"h6	c #563D32",
"i6	c #7F6151",
"j6	c #AD7A6B",
"k6	c #945141",
"l6	c #914F43",
"m6	c #925044",
"n6	c #935147",
"o6	c #814337",
"p6	c #3B2210",
"q6	c #4A3F2F",
"r6	c #5F5346",
"s6	c #5C524B",
"t6	c #514741",
"u6	c #342D24",
"v6	c #201D02",
"w6	c #1C1900",
"x6	c #1B1900",
"y6	c #1A1800",
"z6	c #1B1700",
"A6	c #1C1600",
"B6	c #1B1400",
"C6	c #1A1301",
"D6	c #171101",
"E6	c #150F00",
"F6	c #130E00",
"G6	c #150D00",
"H6	c #160E01",
"I6	c #181101",
"J6	c #574F46",
"K6	c #746767",
"L6	c #615151",
"M6	c #392926",
"N6	c #2E2015",
"O6	c #3A2B25",
"P6	c #534644",
"Q6	c #6A5D5D",
"R6	c #7D6F72",
"S6	c #A1929D",
"T6	c #B3A6B4",
"U6	c #AEA6B6",
"V6	c #9E99A9",
"W6	c #958E9E",
"X6	c #948D9C",
"Y6	c #948FA0",
"Z6	c #9898AA",
"`6	c #979AAB",
" 7	c #9699AA",
".7	c #B7BBCD",
"+7	c #ABABBE",
"@7	c #A6A4B5",
"#7	c #A6A3B4",
"$7	c #A7A0B3",
"%7	c #A89DB1",
"&7	c #A69BAA",
"*7	c #A398A5",
"=7	c #A394A1",
"-7	c #99818B",
";7	c #624442",
">7	c #5D4542",
",7	c #412A23",
"'7	c #583727",
")7	c #874E39",
"!7	c #894735",
"~7	c #894636",
"{7	c #8D4537",
"]7	c #8A4436",
"^7	c #7D3E31",
"/7	c #341F0C",
"(7	c #483E2F",
"_7	c #615547",
":7	c #685A51",
"<7	c #6A5B4F",
"[7	c #362E1F",
"}7	c #1B1A00",
"|7	c #191901",
"17	c #181801",
"27	c #191801",
"37	c #191601",
"47	c #211905",
"57	c #3C2E1A",
"67	c #261B08",
"77	c #181300",
"87	c #171100",
"97	c #141001",
"07	c #150E01",
"a7	c #160F01",
"b7	c #5C5249",
"c7	c #A7949B",
"d7	c #A8939A",
"e7	c #A9919A",
"f7	c #A28E93",
"g7	c #A59298",
"h7	c #AF9EA6",
"i7	c #B1A2AE",
"j7	c #B3A6B5",
"k7	c #B5AABA",
"l7	c #B4ADBC",
"m7	c #B7AEBD",
"n7	c #B2ADBE",
"o7	c #A19CAC",
"p7	c #948E9C",
"q7	c #918C9A",
"r7	c #9996A5",
"s7	c #AFB2C4",
"t7	c #B0B5C7",
"u7	c #AFB2C5",
"v7	c #ABAFC4",
"w7	c #A5A2B7",
"x7	c #A6A3B5",
"y7	c #A6A2B3",
"z7	c #A69FB1",
"A7	c #A59BAF",
"B7	c #A499A9",
"C7	c #A397A6",
"D7	c #A195A2",
"E7	c #A3909E",
"F7	c #7C6068",
"G7	c #472D2B",
"H7	c #412A24",
"I7	c #452D22",
"J7	c #895245",
"K7	c #8D4D3C",
"L7	c #914E3D",
"M7	c #8F4C3C",
"N7	c #894738",
"O7	c #5B2618",
"P7	c #2A1D08",
"Q7	c #544D3E",
"R7	c #5E5547",
"S7	c #665C52",
"T7	c #584E43",
"U7	c #272111",
"V7	c #1C1901",
"W7	c #151701",
"X7	c #161801",
"Y7	c #151801",
"Z7	c #171701",
"`7	c #2B210D",
" 8	c #504125",
".8	c #3D2914",
"+8	c #161400",
"@8	c #161200",
"#8	c #181100",
"$8	c #181201",
"%8	c #43372C",
"&8	c #A69098",
"*8	c #A9969F",
"=8	c #AA99A4",
"-8	c #A898A4",
";8	c #A394A0",
">8	c #9D8F9A",
",8	c #A799A8",
"'8	c #A99EAF",
")8	c #A99EAE",
"!8	c #ABA3B3",
"~8	c #9691A1",
"{8	c #8F8997",
"]8	c #8E8C99",
"^8	c #8F8C99",
"/8	c #9592A0",
"(8	c #A5A8BA",
"_8	c #A2A9BB",
":8	c #A2A7BA",
"<8	c #A1A2B5",
"[8	c #A3A0B3",
"}8	c #A3A1B2",
"|8	c #A5A0B2",
"18	c #A49DAF",
"28	c #A299AC",
"38	c #A297A9",
"48	c #A397A8",
"58	c #9F95A3",
"68	c #9F919E",
"78	c #9A858F",
"88	c #70585D",
"98	c #644B4D",
"08	c #432720",
"a8	c #522A1E",
"b8	c #804833",
"c8	c #814331",
"d8	c #834535",
"e8	c #874636",
"f8	c #45220E",
"g8	c #2F2611",
"h8	c #5A5541",
"i8	c #5B5144",
"j8	c #5B4E44",
"k8	c #1E1602",
"l8	c #1C1801",
"m8	c #191701",
"n8	c #161601",
"o8	c #141601",
"p8	c #151601",
"q8	c #171601",
"r8	c #181601",
"s8	c #191501",
"t8	c #191600",
"u8	c #1A1500",
"v8	c #171501",
"w8	c #161401",
"x8	c #181502",
"y8	c #161300",
"z8	c #161302",
"A8	c #1B1707",
"B8	c #2E281B",
"C8	c #9E8C8F",
"D8	c #A795A1",
"E8	c #A798A5",
"F8	c #A697A4",
"G8	c #A095A1",
"H8	c #9C909B",
"I8	c #A193A2",
"J8	c #A59EAD",
"K8	c #A6A1AE",
"L8	c #A8A3AE",
"M8	c #9D98A4",
"N8	c #908B97",
"O8	c #8F8B95",
"P8	c #8D8A97",
"Q8	c #8D8B98",
"R8	c #91909D",
"S8	c #9FA5B5",
"T8	c #9FA6B7",
"U8	c #9DA4B5",
"V8	c #999BAD",
"W8	c #A3A2B5",
"X8	c #A7A5B9",
"Y8	c #A19BB1",
"Z8	c #A19AAC",
"`8	c #A097A8",
" 9	c #A095A6",
".9	c #9F94A3",
"+9	c #9F97A5",
"@9	c #A79CA8",
"#9	c #9B8B95",
"$9	c #9D858F",
"%9	c #8C7277",
"&9	c #452521",
"*9	c #39190B",
"=9	c #643825",
"-9	c #774331",
";9	c #723A2C",
">9	c #421E14",
",9	c #271702",
"'9	c #271C07",
")9	c #3B3122",
"!9	c #544639",
"~9	c #5E5245",
"{9	c #514638",
"]9	c #1C1702",
"^9	c #1A1701",
"/9	c #161500",
"(9	c #151401",
"_9	c #181600",
":9	c #171600",
"<9	c #161600",
"[9	c #171400",
"}9	c #181501",
"|9	c #1A1705",
"19	c #1D1B0A",
"29	c #201E10",
"39	c #212017",
"49	c #23221D",
"59	c #282720",
"69	c #928486",
"79	c #A5959E",
"89	c #A596A2",
"99	c #A397A3",
"09	c #A296A2",
"a9	c #9E929D",
"b9	c #9D939D",
"c9	c #A099A5",
"d9	c #A39DA9",
"e9	c #9F9CA8",
"f9	c #96939F",
"g9	c #908D9A",
"h9	c #8F8D98",
"i9	c #8E8A98",
"j9	c #8D8A98",
"k9	c #8E8E9A",
"l9	c #9FA1B2",
"m9	c #9FA4B5",
"n9	c #9DA2B3",
"o9	c #9697A9",
"p9	c #A9A9BD",
"q9	c #AFAEC1",
"r9	c #A19AAE",
"s9	c #9E97A7",
"t9	c #9D94A5",
"u9	c #9E94A2",
"v9	c #9E93A2",
"w9	c #A297A5",
"x9	c #B4A8B5",
"y9	c #A495A1",
"z9	c #998794",
"A9	c #97838F",
"B9	c #887178",
"C9	c #4D332E",
"D9	c #391708",
"E9	c #3B1C13",
"F9	c #2E1809",
"G9	c #231604",
"H9	c #221803",
"I9	c #2D2313",
"J9	c #544739",
"K9	c #524638",
"L9	c #372D1E",
"M9	c #161802",
"N9	c #181704",
"O9	c #18190A",
"P9	c #1A1B0D",
"Q9	c #1B1C10",
"R9	c #1C1E10",
"S9	c #1D1F13",
"T9	c #212118",
"U9	c #22231D",
"V9	c #23241F",
"W9	c #2A2721",
"X9	c #847C7D",
"Y9	c #A1949D",
"Z9	c #A395A1",
"`9	c #A096A0",
" 0	c #A095A3",
".0	c #9E939D",
"+0	c #9A919A",
"@0	c #9A929D",
"#0	c #9A96A1",
"$0	c #9692A0",
"%0	c #938F9C",
"&0	c #918F9A",
"*0	c #93919E",
"=0	c #8F8D9A",
"-0	c #8B8C98",
";0	c #8D8C9B",
">0	c #9EA2B4",
",0	c #A0A4B7",
"'0	c #A4A7B9",
")0	c #AFB2C7",
"!0	c #B2B1C5",
"~0	c #9F99AC",
"{0	c #9D95A9",
"]0	c #9C93A4",
"^0	c #9D93A3",
"/0	c #9D92A1",
"(0	c #A198A5",
"_0	c #B5A8B9",
":0	c #9C8F9D",
"<0	c #938694",
"[0	c #908189",
"}0	c #978487",
"|0	c #927E7F",
"10	c #7A666A",
"20	c #2F221E",
"30	c #26180B",
"40	c #201906",
"50	c #1C1602",
"60	c #28200D",
"70	c #4E4335",
"80	c #4D4133",
"90	c #281C0A",
"00	c #141600",
"a0	c #151600",
"b0	c #151400",
"c0	c #151500",
"d0	c #181A03",
"e0	c #181B08",
"f0	c #1A1C0D",
"g0	c #1C1C0E",
"h0	c #1C1E12",
"i0	c #1D1F12",
"j0	c #202115",
"k0	c #212218",
"l0	c #22231C",
"m0	c #24241F",
"n0	c #282623",
"o0	c #776C6C",
"p0	c #9E9197",
"q0	c #A0939D",
"r0	c #9F939D",
"s0	c #9E93A1",
"t0	c #9D939E",
"u0	c #9B929E",
"v0	c #99929F",
"w0	c #97929C",
"x0	c #928E9C",
"y0	c #918D9A",
"z0	c #928F9B",
"A0	c #9493A2",
"B0	c #8E8E9C",
"C0	c #8A8C98",
"D0	c #8C8C9A",
"E0	c #9CA0AF",
"F0	c #9B9FAF",
"G0	c #9BA0B0",
"H0	c #AEB0C5",
"I0	c #ADB1C2",
"J0	c #B5B6C9",
"K0	c #A19CAE",
"L0	c #9D97A8",
"M0	c #9B93A4",
"N0	c #9A91A1",
"O0	c #9B909F",
"P0	c #9F97A4",
"Q0	c #B1A8B7",
"R0	c #B0A5B4",
"S0	c #B1A6B5",
"T0	c #988E9C",
"U0	c #8B7F88",
"V0	c #918289",
"W0	c #9E8D95",
"X0	c #79677A",
"Y0	c #32232A",
"Z0	c #291D13",
"`0	c #211A0A",
" a	c #403A2E",
".a	c #3D3529",
"+a	c #50453C",
"@a	c #4E4234",
"#a	c #241705",
"$a	c #151300",
"%a	c #141300",
"&a	c #161501",
"*a	c #1A1A06",
"=a	c #1A1C0C",
"-a	c #191D0F",
";a	c #1A1E11",
">a	c #1B1D10",
",a	c #212116",
"'a	c #21221B",
")a	c #21221D",
"!a	c #23231F",
"~a	c #252621",
"{a	c #625B57",
"]a	c #9B8E93",
"^a	c #9E909A",
"/a	c #9E919B",
"(a	c #9C929F",
"_a	c #98929D",
":a	c #96939B",
"<a	c #909099",
"[a	c #92909D",
"}a	c #9695A3",
"|a	c #9395A5",
"1a	c #8A8B9A",
"2a	c #898A99",
"3a	c #8F94A2",
"4a	c #9195A3",
"5a	c #9397A6",
"6a	c #ADB0C2",
"7a	c #ABAEBE",
"8a	c #AFB4C2",
"9a	c #9996A9",
"0a	c #9994A4",
"aa	c #9B91A2",
"ba	c #988FA0",
"ca	c #978F9E",
"da	c #9B96A2",
"ea	c #ABA5B3",
"fa	c #AFA6B5",
"ga	c #AFA4B4",
"ha	c #A69AAA",
"ia	c #8B7E8A",
"ja	c #90848D",
"ka	c #978A93",
"la	c #6C5D73",
"ma	c #332129",
"na	c #2B1D16",
"oa	c #261C0F",
"pa	c #544C43",
"qa	c #635A55",
"ra	c #5D554E",
"sa	c #4F463D",
"ta	c #322B1E",
"ua	c #161701",
"va	c #171700",
"wa	c #191805",
"xa	c #1A1B09",
"ya	c #1C1B0C",
"za	c #1A1C0F",
"Aa	c #1C1E11",
"Ba	c #202119",
"Ca	c #20211B",
"Da	c #22231E",
"Ea	c #242520",
"Fa	c #4B4543",
"Ga	c #998C8F",
"Ha	c #9B8F95",
"Ia	c #9A8F99",
"Ja	c #99919E",
"Ka	c #99929E",
"La	c #97919D",
"Ma	c #95919C",
"Na	c #939298",
"Oa	c #929199",
"Pa	c #94939C",
"Qa	c #94939D",
"Ra	c #9596A4",
"Sa	c #8D8C9A",
"Ta	c #898A98",
"Ua	c #868897",
"Va	c #9297A5",
"Wa	c #949AAA",
"Xa	c #ABADBE",
"Ya	c #ADAEBE",
"Za	c #AFB2BF",
"`a	c #9795A6",
" b	c #9692A2",
".b	c #988F9F",
"+b	c #968E9C",
"@b	c #958E9A",
"#b	c #9894A0",
"$b	c #A9A5B3",
"%b	c #A5A1AF",
"&b	c #A7A1AE",
"*b	c #938A97",
"=b	c #897D87",
"-b	c #8D818B",
";b	c #8D818C",
">b	c #5C4D67",
",b	c #2F1E22",
"'b	c #291C15",
")b	c #271E14",
"!b	c #584F45",
"~b	c #635D55",
"{b	c #5D554D",
"]b	c #564E46",
"^b	c #372F25",
"/b	c #1A1704",
"(b	c #171702",
"_b	c #141400",
":b	c #121400",
"<b	c #191704",
"[b	c #191A09",
"}b	c #1A190C",
"|b	c #1A1A0C",
"1b	c #1C1A0D",
"2b	c #1B1C0E",
"3b	c #201F17",
"4b	c #20201B",
"5b	c #20211C",
"6b	c #292721",
"7b	c #8B7F7E",
"8b	c #988B95",
"9b	c #978D98",
"0b	c #978F9A",
"ab	c #968E99",
"bb	c #958F9A",
"cb	c #93909B",
"db	c #918E99",
"eb	c #93919C",
"fb	c #92919C",
"gb	c #92919F",
"hb	c #8A8997",
"ib	c #878796",
"jb	c #9196A4",
"kb	c #9197A5",
"lb	c #949AA9",
"mb	c #9695A7",
"nb	c #A8AAB9",
"ob	c #A2A4B5",
"pb	c #9591A2",
"qb	c #948D9D",
"rb	c #8F8C96",
"sb	c #908B96",
"tb	c #96909C",
"ub	c #A6A2B0",
"vb	c #A8A6B2",
"wb	c #948E98",
"xb	c #89828A",
"yb	c #867B81",
"zb	c #8A7D87",
"Ab	c #766576",
"Bb	c #4E3F58",
"Cb	c #291B1F",
"Db	c #271E15",
"Eb	c #2E261D",
"Fb	c #5A544C",
"Gb	c #615B55",
"Hb	c #5E5651",
"Ib	c #554D47",
"Jb	c #373026",
"Kb	c #1C1908",
"Lb	c #191703",
"Mb	c #131300",
"Nb	c #141200",
"Ob	c #161705",
"Pb	c #181609",
"Qb	c #1A160A",
"Rb	c #1A1B0F",
"Sb	c #1B1D11",
"Tb	c #1E1D16",
"Ub	c #21201A",
"Vb	c #20211D",
"Wb	c #20211E",
"Xb	c #22241E",
"Yb	c #797072",
"Zb	c #948992",
"`b	c #948D95",
" c	c #938D97",
".c	c #928C98",
"+c	c #908D98",
"@c	c #8E8C97",
"#c	c #91919C",
"$c	c #9193A0",
"%c	c #898A97",
"&c	c #848795",
"*c	c #828594",
"=c	c #8A909E",
"-c	c #8F92A2",
";c	c #8E95A4",
"  . + @ # $ % & * = - ; > , ' ) ! ~ { ] ^ / ( _ : < [ } | 1 2 3 4 5 6 7 8 9 0 a b c d e f g h i j k l m n o p q r s t u v w x y ",
"z A B C D E F * G H I J K L M N O P Q R S T U V W X Y Z `  ...+.@.#.$.%.&.*.=.-.;.>.,.'.).).!.~.{.].^./.(._.:.<.[.}.|.1.2.3.4.5.",
"6.7.8.9.0.a.b.c.d.e.f.g.h.i.j.k.l.m.n.o.p.q.r.s.t.u.v.w.x.y.z.A.B.C.D.E.F.G.H.I.J.K.,.L.M.N.O.P.Q.R.S.T.^ U.V.W.X.Y.|.Z.`. +.+++",
"@+#+$+%+&+*+=+-+;+v >+,+'+)+!+~+{+]+^+/+(+_+:+<+[+}+|+1+2+3+4+5+6+7+8+9+0+a+b+c+d+e+f+g+f h+i+j+k+l+m+n+o+p+q+r+s+t+u+v+w+x+y+z+",
"A+B+C+D+E+F+G+H+I+J+v K+L+M+N+O+P+Q+R+S+T+U+V+W+X+Y+Z+`+ @.@+@@@#@$@%@&@*@=@-@;@>@,@,@i+'@)@!@~@{@]@^@/@(@_@:@<@[@}@|@1@2@3@4@5@",
"6@7@8@9@0@a@b@c@d@e@f@g@h@i@j@k@l@m@n@o@p@q@r@s@t@u@v@w@x@y@z@A@B@C@D@E@F@G@H@I@J@).K@j+L@M@N@O@P@Q@R@S@T@U@V@W@X@Y@Z@`@ #.#+#@#",
"##$#%#&#*#=#-#;#>#,#'#)#!#~#{#]#^#/#(#_#:#<#[#}#|#1#2#3#4#5#6#7#8#9#0#a#b#c#d#e#f#g#h#h#i#j#k#l#m#n#o#p#q#r#s#t#u#v#w#x#y#z#A#B#",
"C#D#E#F#G#H#I#J#,#>#K#L#M#N#O#P#Q#R#S#T#U#V#W#X#Y#Z#`# $.$+$@$#$$$%$&$*$=$-$;$>$,$'$)$!$~${$]$^$/$($_$:$<$[$}$|$1$2$3$4$5$6$7$8$",
"9$0$a$b$c$d$e$f$g$,#h$d@i$j$k$l$m$n$o$p$q$r$s$t$u$v$w$x$y$z$A$B$C$D$E$F$G$H$I$J$K$L$M$N$!$O$P$Q$R$S$T$U$V$W$X$Y$Z$`$ %.%+%@%#%$%",
"%%&%*%=%-%;%>%4$,%L#'%)%v !%~%{%]%^%S#/%(%_%:%<%[%}%|%1%2%3%4%5%6%7%8%9%0%a%b%c%d%e%h#f%M@g%T h%i%j%k%l%m%n%o%p%q%n%r%s%t%u%v%w%",
"x%y%z%A%B%C%D%E%F%G%H%I%J%K%L%M%N%O%P%Q%R%S%T%U%V%W%X%Y%Z%`% &.&+&@&#&$&%&&&*&=&-&;&~@>&,&'&)&!&~&{&]&^&/&(&_&:&<&[&}&}@|&1&2&3&",
"4&5&6&7&8&9&0&a&b&c&d&e&f&g&h&i&j&k&l&m&n&o&p&q&r&s&t&u&v&w&x&y&z&A&B&C&D&E&F&I@G&H&I&J&K&L&M&N&O&P&Q&R&S&T&U&V&W&X&Y&Z&`& *.*+*",
"@*@*#*$*%*&***=*-*;*^ >*,*'*)*!*~*{*]*^*/*(*_*:*<*[*}*|*1*2*3*4*5*6*7*8*9*0*a*f+b*c*K&d*K&e*f*g*h*i*j*k*l*m*n*o*p*q*r*s*t*u*v*w*",
"x*y*z*A*B*C*D*E*F*G*H*I*J*K*L*M*N*O*P*Q*R*S*T*U*V*W*X*Y*Z*`* =.=+=@=#=$=%=&=*===-=;=>=,=K&'=g&)=!=~={=]=^=/=(=_=:=<=[=}=|=1=2=3=",
"4=5=6=7=8=9=0=a=b=c=d=e=f=g=h=i=j=[$k=l=m=n=o=p=q=r=s=t=u=v=w=x=y=z=A=B=-$C=D=d M.E=E=F=G='&H=I=J=K=L=M=N=O=P=Q=R=S=T=U=V=W=w*X=",
"Y=Z=`= -.-+-@-#-$-%-&-*-=---;->-,-'-s#)-!-~-{-]-^-/-(-_-:-<-[-}-|-1-2-3-4-5-6-7-8-9-0-a-e+L&b-c-d-e-f-g-h-i-j-k-l-m-n-o-p-q-r-s-",
"t-u-v-w-x-y-z-A-B-C-D-E-F-G-H-I-J-K-L-M-N-O-P-Q-R-S-T-U-V-W-X-Y-Z-`- ;.;+;@;#;$;%;&;*;a-=;-;;;>;,;';);!;~;{;];^;/;(;_;:;<;[;};|;",
"1;2;3;4;5;6;7;8;9;0;a;b;c;d;e;f;g;h;i;j;k;l;m;n;o;p;q;r;s;t;u;v;w;W-x;y;z;A;B;C;D;E;F;G;H;I;J;K;L;O$M;N;O;P;Q;R;S;T;U;V;W;X;Y;Z;",
"`; >.>+>@>#>$>%>c=0;&>*>=>->;>>>,>k='>)>!>~>{>]>^>/>(>_>:><>[>}>|>1>2>3>4>5>%;6>7>'.>.8>9>0>a>e+b>c>d>e>f>g>R.h>i>j>k>l>m>n>o>p>",
"q>r>s>t>u>v>w>x>x>1@y>z>A>B>C>D>E>F>G>H>I>J>K>L>M>N>O>P>Q>R>S>T>U>V>W>X>Y>Z>`> ,.,+,>.@,#,$,,.%,&,*,=,-,;,>,,,',),!,~,{,S;],^,/,",
"(,_,:,<,[,},K#|,1,2,3,4,*-5,6,7,8,9,0,a,b,c,d,e,f,g,h,i,j,k,l,m,n,o,p,q,r,s,t,u,v,w,>.@,#,x,y,z,A,B,C,f#D,E,^#F,G,H,I,J,j-K,L,M,",
"N,O,P,Q,R,S,T,3,U,V,W,X,Y,Z,`, '.'+'@'d##'$'%'&'*'='-';'>',''')'!'~'{']'^'/'('_':'<'['}'|'1'2'3'4'5'6'7'8'9'0'a'b'c'd'e'f'l-g'h'",
"i'j'k'l'm'n'o'p'U,q'r's't'u'v'w'x'y'z'A'B'C'D'E'F'G'H'I'J'K'L'M'N'O'P'Q'R'S'T'U'V'W'X'Y'Z'1'`' ).)+)@)#)$)%)o$&)*)=)-);)>),)')))",
"!)~){)])^)P#/)()_):)<)[)})|)1)2)3)4)5)6)7)8)9)0)a)b)c)d)e)f)g)h)i)j)k)l)m)n)o)p)q)r)s)t)X'W'u)v)w)x)]*y)z)A)B)C)D)E)F)G)K,H)I)J)",
"K)L)M)N)O)P)Q)r R)S)T)U)V)W)X)Y)Z)`) !.!+!@!#!$!%!&!*!=!-!;!>!,!'!)!!!~!{!]!^!/!(!_!:!<![!}!|!1!2!3!4!5!6!7!8!9!0!c>a!b!c!d!e!f!",
"g!h!i!j!k!l!!%m!n!o!p!q!r!s!t!u!v!w!x!y!z!A!B!C!D!E!F!G!H!I!J!K!L!M!N!O!P!Q!R!S!T!U!V!q)W!W'X!Y!Z!o!`! ~.~+~@~#~$~'&%~&~*~=~-~;~",
">~,~'~)~!~x+5.~~{~]~^~/~(~_~:~<~[~}~|~1~2~3~4~5~6~7~8~9~0~a~b~c~d~e~f~g~h~i~j~k~l~m~n~o~p~q~r~s~t~u~v~w~x~y~z~A~B~C~D~E~F~G~H~I~",
"J~K~L~M~N~O~P~Q~R~S~T~U~V~W~X~Y~Z~`~ {.{+{@{#{${%{&{*{={-{;{>{,{'{){!{~{{{]{^{/{({_{:{<{[{}{|{1{2{3{4{5{6{7{8{9{0{a{b{c{d{e{f{g{",
"h{i{j{k{l{m{n{o{p{q{r{s{t{u{v{w{x{y{z{A{B{C{D{E{F{G{H{I{J{K{L{M{N{O{P{Q{R{S{T{U{V{W{X{Y{Z{`{ ].]+]@]#]$]%]&]*]=]-];]>]g ,]'])]!]",
"~]F){]]]^]/](]_]:]t!<][]}]|]1]2]3]4]5]6]7]8]9]0]a]b]c]d]e]f]g]h]i]j]k]l]l]m]n]o]o]p]q]r]s]t]u]v]w]x]y]z]A]B]C](#D]E]F]G]H]I]J]K]",
"L]M]N]O]P]Q]R]S]T]U]V]W]X]Y]Z]`] ^.^+^@^#^$^%^&^*^=^-^;^>^,^'^)^!^~^{^]^o]^^/^(^_^:^<^[^}^|^1^2^3^4^5^6^7^8^9^0^a^b^c^d^e^f^g^h^",
"i^j^k^l^z,m^n^o^p^q^r^s^t^u^v^w^x^y^z^A^B^C^D^E^F^G^H^I^J^K^L^M^N^O^P^Q^R^S^T^U^V^W^k]X^Y^Z^`^ /./+/@/#/$/s,%/F;&/;&*/=/g -/;/>/",
",/'/)/!/~/{/]/^///(/_/:/</[/}/|/1/2/3/4/5/6/7/8/9/0/a/b/c/d/e/N^f/g/h/i/X^W^j/k/l/O^m/n/o/p/O{q/r/s/t/u/v/w/x/y/z/A/B/C/)$D/E/F/",
"G/H/I/J/K/L/t!M/N/O/P/Q/R/S/T/U/V/W/X/Y/Z/`/ (.(+(@(#($(%(&(*(f//^=(-(;(i/{^>(,('()(!(n/~({(M^](^(/(((_(:(<([(}(|(1(2(3(4(,=5(6(",
"7(8(9(0(a(b(c(d(e(f(g(h(i(j(k(|/l(m(n(o(p(q(r(s(t(u(v(w(x(~^y(z(A(B(C(D(E(F(G(H(I(f/J(K(L(M(N(O(P(/(Q(R(S(T(U(V(9-W(;=X(Y(i#Z(`(",
" _._+_@_#_$_%_&_*_=_-_;_>_,_l('_'_)_!_~_{_]_^_/_(___:_<_[_}_|_1_2_B(A('(U^3_4_5_6_7_8_9_0_a_b_c_d_e_f_g_h_i_j_k_l_m_n_o_p_4(q_r_",
"s_t_u_v_w_x_y_z_A_B_g(C_X/U/D_E_W/F_G_H_I_J_K_L_M_N_O_P_Q_R_|_}_}_}_S_D(T_U_V_5_W_X_Y_Q^Z_`_ :.:+:@:#:$:%:&:*:=:-:;:>:,:':C,):!:",
"~:{:]:^:/:(:_:::<:[:}:|:1:|/2:'_3:4:5:6:7:8:9:0:a:b:c:d:e:f/z(R_f:g:h:i:l/j:k:l:m:n:o:p:q:r:s:t:u:v:w:x:y:z:A:=:B:C:D:E:F:G:H:I:",
"J:K:L:M:N:O:P:z_Q:R:S:T:m(U/|/W/U:V:W:X:Y:Z:`: <.<+<@<#<!($<O^-(%<!({(&<*<=<-<;<><,<q:'<)<!<~<{<]<^</<(<_<:<<<[<}<|<1<2<3<4<5<b>",
"6<7<8<9<0<a<b<c<d<e<f<g<h<i<j<k<l<V:V:m<n<o<p<q<r<s<t<u<)(v<O^O^1_o/]<w<x<y<z<A<B<C<D<E<F<G<H<t:I<J<K<L<M<N<O<P<Q<R<S<T<U<V<W<X<",
"Y<Z<`< [.[+[@[#[$[%[&[*[=[-[j<j<j<;[>[,['[)[![~[{[][^[R^/^/[([_[:[<[[[}[|[1[2[3[4[5[6[7[8[9[0[a[~(}_b[c[d[e[f[g[h[i[j[k[l[m[Z,n[",
"o[p[q[r[s[t[u[v[w[x[y[z[A[B[j<C[D[E[F[G[H[I[J[K[L[M[N[O[P[{^Q[R[S[T[U[V[W[X[Y[Z[t:8_`[ }.}+}@}j:I(i:#}$}%}&}*}=}-}9*;}>},}'})}!}",
"~}{}]}^}/}(}_}:}<}[}}}|}1}2}3}4}5}6}7}8}9}0}a}b}c}d}e}f}g}h}Y_i}j}k}l}m}n}o}p}q}]<8_r}s}t}u}v}!<w}-<x}{^y}z}A}B}C}-}D}E}F}G}H}I}",
"J}K}L}M}N}O}P}Q}R}S}T}U}V}W}X}Y}Z}`} |.|+|@|#|$|%|&|*|=|E(-|;|>|,|'|)|!|~|{|]|^|/|I<(|_|:|<|[|}|||1|2|3|4|&<5|6|7|8|9|0|a|b|c|d|",
"e|f|g|h|i|j|k|l|m|n|o|p|q|r|s|4}t|u|v|w|x|y|z|A|B|C|D|'(E|F|G|H|I|J|K|L|M|N|O|P|Q|R|S|T|U|V|W|X|Y|Z|`| 1.1+1@1#1$1%1&1*1=1-1;1>1",
",1'1)1!1~1{1]1^1/1(1_1:1<1[1}1|111213141516171819101a1b1q:c1d1e1f1g1h1i1j1k1l1m1n1o1p1q1r1s1t1u1v1w1x1y1z1A1B1C1D1E1F1G1H1I1J1K1",
"L1M1N1O1P1Q1R1S1b]T1U1V1W1X1Y1Z1`1 2.2+2@2#2$2%2&2*2=2-<-2;2>2,2'2)2!2~2{2]2^2/2(2_2:2<2[2}2|212223242526272829202a2b2c2d2e2f2g2",
"h2i2j2k2l2m2n2o2p2q2r2s2t2X1u2v2w2x2y2z2A2B2C2D2E2F2G2H2I2J2K2L2M2N2O2P2Q2R2S2T2U2V2W2X2Y2Z2`2 3.3+3@3#3$3%3&3*3=3-3;3>3,3'3)3!3",
"~3{3]3^3/3(3_3:3<3[3}3|313233343536373839303a3b3c3d3e3=<=<f3g3h3i3j3k3l3m3n3o3p3q3r3L(s3Y2t3t3t3u3u3v3@3w3x3y3z3A3B3C3D3E3F3G3H3",
"I3J3K3L3M3N3O3P3Q3R3S3^{T3U3V3W3X3Y3Z3`3 4.4+4@4#4$4)<%4&4D<*4=4-4;4>4,4'4)4!4~4{4]4^4/4(4_4:4t3<4[4}4(4|414243444546474849404a4",
"b4c4d4e4f4:<g4h4i4j4k4l4m4n4o4p4q4r4s4t4u4v4w4x4y4z4A4B4C4D4E4F4t}G4H4I4J4K4L4M4N4L4O4P4Q4R4S4T4U4V4W4X4Y4Z4`4 5.5+5@5#5$5%5&5*5",
"=5-5;5>5,5'5)5!5~5{5]5^5/5(5_5:5<5[5}5|515253545556575859505a5b5c5c5d5e5f5g5h5h5i5j5k5l5m5n5o5p5q5r5s5t5u5&3v5w5x5y5z5A5B5C5c*D5",
"E5F5G5H5v/I5J5K5L5M5N5O5P5Q5R5S5T5U5V5W5X5Y5Z5`5 6.6+6@6b5b5b5b5#6$6%6&6*6=6-6;6>6,6'6)6=4!6~6{6]6^6/6(6_6:6<6[6}6|6162636465666",
"76869606['a6b6c6d6e6f6g6h6i6j6k6l6m6n6o6p6q6r6s6t6u6v6@6w6x6#6#6y6z6A6B6C6D6E6F6F6G6H6I6J6K6L6M61[N6O6P6Q6R6S6T6U6V6W6X6Y6Z6`6 7",
".7+7@7#7$7%7&7*7=7-7;7>7,7'7)7!7~7{7]7^7/7(7_7:7<7[7@6}7|717272727374757677787=69707a777b7c7d7e7f7g7h7i7j7k7l7m7n7o7p7q7r7s7t7u7",
"v7w7x7y7z7A7B7C7D7E7F7G7H7I7J7K7L7M7N7O7P7Q7R7S7T7U7b5V717W7W7X7Y7Z7`7 8.8>4+8@8D6#8#8$8%8&8*8=8-8;8>8,8'8)8.!!8~8{8]8^8/8(8_8:8",
"<8[8}8|818283848586878889808a8b8c8d8e8f8g8h8i8j8%8k8l8m8n8o8p8q8r8s8t8,4u8s8v8w8x8y8z8A8B8C8D8E8F8G8H8I8J8K8L8M8N8O8P8Q8R8S8T8U8",
"V8W8X8Y8Z8`8 9.9+9@9#9$9%9&9*9=9-9;9>9,9'9)9!9~9{9]9^9/9/9/9(9/9_9_9:9<9[9/9}9|919293949596979899909a9b9c9d9e9f9g9h9i9j9k9l9m9n9",
"o9p9q9r9s9t9u9v9w9x9y9z9A9B9C9D9E9F9G9H9k8I9J9K9L9T|r8/9/9/9/9<9q8W7M9N9O9P9Q9R9S9T9U9V9W9X9Y9Z9`9 0.0+0@0#0$0%0&0*0=0-0;0>0,0U8",
"'0)0!0~0{0]0^0/0(0_0z_:0<0[0}0|0102030405060708090d5r8p800a0b0c0Z7d0e0f0g0Q9h0i0j0k0l0m0n0o0p0q0r0s0t0u0v0w0x0y0z0A0B0C0D0E0F0G0",
"H0I0J0K0L0M0N0O0P0Q0R0S0T0U0V0W0X0Y0Z0`0 a.a+a@a#ai537q8/9$a%a%a&a*a=af0-a;a>ai0,a'a)a!a~a{a]a^a/a(ab9u0_a:a<a[a}a|a;01a2a3a4a5a",
"6a7a8a9a0aaabacadaeafagahaiajakalamanaoapaqarasatax8uavaq8$a%a%a%awaxaya=aza>aAaBaCa)aDaEaFaGaHaIaJaKaLaMaNaOaPaQaRaSaTaUa5aVaWa",
"XaYaZa`a b.b+b@b#b$b%b&b*b=b-b;b>b,b'b)b!b~b{b]b^b/b(bq8&a_b:b:b%a<b[b}b|b1b2b>a3b4b5b)aU96b7b8b9b0babbbcbdbdbebfbgbhbibUajbkblb",
"mbnbobpbqby0rbsbtbubvbwbxbybzbAbBbCbDbEbFbGbHbIbJbKbLbp8c0%aMb%aNbb0ObPbQb}bRbSbTbUbCaVbWbXbYbZb`b`b c.c+c@c@ch9#c$c%c&c*c=c-c;c"};
