/* XPM */
static char * south_xpm[] = {
"64 64 88 1",
" 	c #FFFFFF",
".	c #C6C6C6",
"+	c #919191",
"@	c #6B6B6B",
"#	c #828282",
"$	c #B3B3B3",
"%	c #F0F0F0",
"&	c #BCBCBC",
"*	c #636363",
"=	c #222222",
"-	c #000000",
";	c #252525",
">	c #787878",
",	c #E1E1E1",
"'	c #898989",
")	c #3D3D3D",
"!	c #4E4E4E",
"~	c #4B4B4B",
"{	c #B2B2B2",
"]	c #D7D7D7",
"^	c #F4F4F4",
"/	c #6C6C6C",
"(	c #E9E9E9",
"_	c #595959",
":	c #2B2B2B",
"<	c #757575",
"[	c #5E5E5E",
"}	c #1D1D1D",
"|	c #545454",
"1	c #2A2A2A",
"2	c #1F1F1F",
"3	c #7F7F7F",
"4	c #313131",
"5	c #282828",
"6	c #727272",
"7	c #474747",
"8	c #565656",
"9	c #A5A5A5",
"0	c #838383",
"a	c #9D9D9D",
"b	c #CBCBCB",
"c	c #999999",
"d	c #AEAEAE",
"e	c #CDCDCD",
"f	c #797979",
"g	c #4D4D4D",
"h	c #7C7C7C",
"i	c #5D5D5D",
"j	c #373737",
"k	c #959595",
"l	c #3E3E3E",
"m	c #292929",
"n	c #616161",
"o	c #AAAAAA",
"p	c #303030",
"q	c #DFDFDF",
"r	c #575757",
"s	c #BDBDBD",
"t	c #E7E7E7",
"u	c #7D7D7D",
"v	c #B9B9B9",
"w	c #2C2C2C",
"x	c #A6A6A6",
"y	c #8E8E8E",
"z	c #202020",
"A	c #676767",
"B	c #8D8D8D",
"C	c #0A0A0A",
"D	c #141414",
"E	c #F9F9F9",
"F	c #C2C2C2",
"G	c #9E9E9E",
"H	c #525252",
"I	c #2E2E2E",
"J	c #0D0D0D",
"K	c #1C1C1C",
"L	c #535353",
"M	c #101010",
"N	c #434343",
"O	c #242424",
"P	c #363636",
"Q	c #191919",
"R	c #353535",
"S	c #333333",
"T	c #111111",
"U	c #3F3F3F",
"V	c #3A3A3A",
"W	c #161616",
"                                                                ",
"                                                                ",
"                                                                ",
"                                                                ",
"                                                                ",
"                                                                ",
"                         .+@#$%                                 ",
"                        &*=-;>,                                 ",
"                       &'-=)!>,                                 ",
"                       '-~+{]]%                                 ",
"                      ^*-/                                      ",
"                      (_:<                                      ",
"                      ([}|.                                     ",
"                      ^+123.                                    ",
"                       .>456$,                                  ",
"                        ,'7;89,                                 ",
"                         ,9/770$^                               ",
"                          ^]a8-/9,                              ",
"                            ,9>;7',                             ",
"                              b6;7.                             ",
"                               c))d                             ",
"                               d77d                             ",
"                        ^^^  ^ef)g.                             ",
"                        &h**//ij:k,                             ",
"                        &l---:m7'b                              ",
"                        bk/**n#$,                               ",
"                            ^^^                                 ",
"                                                                ",
"                                                                ",
"                                                                ",
"                                                                ",
"                                                                ",
"                                                                ",
"                                                                ",
"                                                                ",
"                                                                ",
"                                                                ",
"                                                                ",
"                                                                ",
"                                                                ",
"                                                                ",
"                                                                ",
"     ^^^                                                        ",
"     &o&                                                        ",
"     kl'^                                                       ",
"     3pn(                      ,,,                              ",
"     3:_q                     ,'7[#adddddd+9&                   ",
"     3:_q                     .7=-:77777774-'                   ",
"     3:_q                     a)1r_7777777=-*                   ",
"     3:_q                     #:_e]sdddddc~->                   ",
"     3:_q                     /-*^       .77+                   ",
"     3:_q                    ^*-/        d77d       tbbt        ",
"     h}puase(^               (_:<        d77d       ,<|hv^      ",
"     a4=w77__>+dds]^         q_:3        '44x       ,ymzA9,     ",
"     .'*[77::-7777_/<Base(^  q_:3        >CDnxe(^   EF0r}4*.    ",
"       ^]saB</7777:-::77__*>+GHIB        '=JK4__/#adddx0LM=+,   ",
"             ,.dda#/__77::--7N47k        .'7O4::-:77777P:zQRs   ",
"                   ^(esaB</*777*&          .d'B</_77777ST:TUs   ",
"                           ,.dd.,               ^]sdddc8VW[']   ",
"                                                    ^]a8pkb     ",
"                                                    &h7gkb      ",
"                                                    &l89,       ",
"                                                    b$$,        ",
"                                                                "};
