/* XPM */
static char * west_xpm[] = {
"64 64 113 2",
"  	c #FFFFFF",
". 	c #F5F5F5",
"+ 	c #F4F4F4",
"@ 	c #FEFEFE",
"# 	c #CBCBCB",
"$ 	c #BCBCBC",
"% 	c #ACACAC",
"& 	c #BABABA",
"* 	c #959595",
"= 	c #3E3E3E",
"- 	c #7C7C7C",
"; 	c #C2C2C2",
"> 	c #555555",
", 	c #7E7E7E",
"' 	c #E1E1E1",
") 	c #6C6C6C",
"! 	c #000000",
"~ 	c #787878",
"{ 	c #CECECE",
"] 	c #6A6A6A",
"^ 	c #303030",
"/ 	c #8F8F8F",
"( 	c #A5A5A5",
"_ 	c #474747",
": 	c #8E8E8E",
"< 	c #2B2B2B",
"[ 	c #616161",
"} 	c #828282",
"| 	c #D7D7D7",
"1 	c #B3B3B3",
"2 	c #9D9D9D",
"3 	c #636363",
"4 	c #434343",
"5 	c #1B1B1B",
"6 	c #060606",
"7 	c #3C3C3C",
"8 	c #E9E9E9",
"9 	c #101010",
"0 	c #111111",
"a 	c #4E4E4E",
"b 	c #DFDFDF",
"c 	c #232323",
"d 	c #595959",
"e 	c #CDCDCD",
"f 	c #3D3D3D",
"g 	c #A6A6A6",
"h 	c #797979",
"i 	c #4D4D4D",
"j 	c #B4B4B4",
"k 	c #454545",
"l 	c #1F1F1F",
"m 	c #696969",
"n 	c #898989",
"o 	c #0A0A0A",
"p 	c #222222",
"q 	c #919191",
"r 	c #AAAAAA",
"s 	c #171717",
"t 	c #050505",
"u 	c #353535",
"v 	c #C6C6C6",
"w 	c #666666",
"x 	c #313131",
"y 	c #292929",
"z 	c #121212",
"A 	c #676767",
"B 	c #767676",
"C 	c #BDBDBD",
"D 	c #999999",
"E 	c #AEAEAE",
"F 	c #8D8D8D",
"G 	c #757575",
"H 	c #242424",
"I 	c #2A2A2A",
"J 	c #F9F9F9",
"K 	c #252525",
"L 	c #2D2D2D",
"M 	c #0F0F0F",
"N 	c #020202",
"O 	c #161616",
"P 	c #565656",
"Q 	c #3F3F3F",
"R 	c #777777",
"S 	c #4A4A4A",
"T 	c #464646",
"U 	c #373737",
"V 	c #131313",
"W 	c #151515",
"X 	c #5B5B5B",
"Y 	c #2C2C2C",
"Z 	c #1D1D1D",
"` 	c #969696",
" .	c #838383",
"..	c #808080",
"+.	c #737373",
"@.	c #626262",
"#.	c #181818",
"$.	c #0D0D0D",
"%.	c #F0F0F0",
"&.	c #424242",
"*.	c #646464",
"=.	c #BBBBBB",
"-.	c #363636",
";.	c #2F2F2F",
">.	c #727272",
",.	c #0E0E0E",
"'.	c #323232",
").	c #6D6D6D",
"!.	c #404040",
"~.	c #717171",
"{.	c #8A8A8A",
"].	c #DCDCDC",
"^.	c #5E5E5E",
"                                                                                                                                ",
"                                                                                                                                ",
"                                                                                                                                ",
"                                                                                                                                ",
"                                                                                                                                ",
"                                                                                                                                ",
"                                                                                                                                ",
"                                                                                                                                ",
"                                                                                                                                ",
"                                                                                                                                ",
"                      . + + @                                             # $ $ +                                               ",
"                      # % & +                                             * = - +                                               ",
"                      ; > , ;                                           ' ) ! ~ +                                               ",
"                      { ] ^ / +                                         ( _ _ (                                                 ",
"                      + : < [ ;                                       ' ~ ! ~ '                                                 ",
"                        ; [ < : +                                     ( _ _ (                                                   ",
"                        + } < [ |                                   ' ~ ! ~ '                                                   ",
"                          1 _ _ 2                       $ $ $       1 _ _ 2                                                     ",
"                          ' ~ ! ~ '                   + 3 ! )     + } < [ |                                                     ",
"                            ( _ _ (                   | ^ ! 4 +   | [ < } +                                                     ",
"                            ' ~ ! ~ '               + 2 5 6 7 8   2 _ _ 1                                                       ",
"                              ( _ _ (               | ) 9 0 a b ' ~ ! ~ '                                                       ",
"                              ' ~ ! ~ '             2 _ c 5 d e 1 _ _ 2                                                         ",
"                                ( _ _ (           ' ~ ! _ f _ g } < ) |                                                         ",
"                                ' ~ ! ~ '         ( _ _ h _ _ ) i _ 2 +                                                         ",
"                                  2 _ _ 1       ' ~ ! ~ j d < k < d |                                                           ",
"                                  | [ < } +     ( _ _ ( 8 d l l ! m +                                                           ",
"                                  + } < [ |   $ ~ ! n ' + ~ ! o p q                                                             ",
"                                    r _ _ r # * ! n $     q s t u v                                                             ",
"                                    | d < w * ^ n $       v x o m                                                               ",
"                                    + ~ ! 7 y - $         ' } } 2                                                               ",
"                                      ( _ z A 1 +                                                                               ",
"                                      ' n B 2 +                                                                                 ",
"                                        + + +                                                                                   ",
"                                                                                                                                ",
"                                                                                                                                ",
"                                                                                                                                ",
"                                                                                                                                ",
"                                                                                                                                ",
"                                                                                                                                ",
"                                                                                                                                ",
"                                                                                                                                ",
"                                                                                                                                ",
"                                                                                                                                ",
"                                              ' ' '                                                               + | C D D E ' ",
"                                          ' ( ~ 3 $               $ $ $           + $ $ #         ' | C C E 2 F G ) d _ H z I ( ",
"                                      ' ( ~ _ ! _ n '           $ ) ! n +         1 d < *     J ' ( d d _ _ _ < < ! K L M N O ( ",
"                                    ' ( P ! _ m f P (         ' ( ! z Q C     + 1 R ! ! G     + 1 ) i < _ _ _ > S T U V 6 W X v ",
"                                ' ( ~ _ _ ~ ( v ~ ! ~ '     # * i _ O p g   ' ( ) ! Y Z }     + 1 } F `  .....+.@.4 #.$.o m '   ",
"                            %.( ~ &.! P ( '     2 _ _ 1   $ n < 3 h x x n ' ( P < *.x _ 2     J ' =.: d _ -._ _ < 4 ;.! _ E     ",
"                            ' ~ ! f ~ ( '       | ) < } ( n ! ) ( C - -.>.~ _ i * n _ _ E     ' ( m I ,.6 '._ i ).A !.L *       ",
"                            ' ~ m q '           + ( 3 i ~ !  .1 + + $ n i ! P ( ' C _ 4  .r } ) _ ! I y S >.E E +.7 K * #       ",
"                            %.' ' %.              ' $ n ! n $         $ 3 ~ ( '   | - < > _ < ! _ ~.{.j ].+   ' ^.x ~ #         ",
"                                                      $ $ $           ' ' '       + $ n ^ _ d ~ ( '           ' ( ( v           ",
"                                                                                      # 1 r | +                                 ",
"                                                                                                                                ",
"                                                                                                                                ",
"                                                                                                                                ",
"                                                                                                                                ",
"                                                                                                                                ",
"                                                                                                                                ",
"                                                                                                                                ",
"                                                                                                                                ",
"                                                                                                                                "};
